; generated by PrusaSlicer 2.1.0+win64 on 2020-12-03 at 13:29:12 UTC

; 

; external perimeters extrusion width = 0.45mm
; perimeters extrusion width = 0.45mm
; infill extrusion width = 0.45mm
; solid infill extrusion width = 0.45mm
; top infill extrusion width = 0.40mm
; first layer extrusion width = 0.42mm

M73 P0 R102
M73 Q0 S104
M201 X1000 Y1000 Z1000 E5000 ; sets maximum accelerations, mm/sec^2
M203 X200 Y200 Z12 E120 ; sets maximum feedrates, mm/sec
M204 P1250 R1250 T1250 ; sets acceleration (P, T) and retract acceleration (R), mm/sec^2
M205 X8.00 Y8.00 Z0.40 E1.50 ; sets the jerk limits, mm/sec
M205 S0 T0 ; sets the minimum extruding and travel feed rate, mm/sec
M107
M862.3 P "MK3" ; printer model check
M862.1 P0.4 ; nozzle diameter check
M115 U3.8.0 ; tell printer latest fw version
G90 ; use absolute coordinates
M83 ; extruder relative mode
M104 S215 ; set extruder temp
M140 S60 ; set bed temp
M190 S60 ; wait for bed temp
M109 S215 ; wait for extruder temp
G28 W ; home all without mesh bed level
G80 ; mesh bed leveling
G1 Y-3.0 F1000.0 ; go outside print area
G92 E0.0
G1 X60.0 E9.0 F1000.0 ; intro line
M73 Q0 S104
M73 P0 R102
G1 X100.0 E12.5 F1000.0 ; intro line
G92 E0.0
M221 S95
G21 ; set units to millimeters
G90 ; use absolute coordinates
M83 ; use relative distances for extrusion
M900 K30 ; Filament gcode
;BEFORE_LAYER_CHANGE
G92 E0.0
;0.2


G1 E-3.00000 F2100.00000
G1 Z0.200 F10800.000
;AFTER_LAYER_CHANGE
;0.2
G1 Z0.400
G1 X86.100 Y90.104
G1 Z0.200
G1 E3.00000 F2100.00000
M204 S1000
G1 F660
G1 X87.486 Y89.908 E0.04390
G1 X161.571 Y89.908 E2.32288
G1 X162.886 Y89.923 E0.04123
G1 X163.797 Y90.076 E0.02897
G1 X164.751 Y90.433 E0.03193
G1 X165.615 Y90.972 E0.03193
G1 X166.372 Y91.693 E0.03280
G1 X166.966 Y92.555 E0.03280
G1 X167.371 Y93.519 E0.03280
G1 X167.571 Y94.546 E0.03280
G1 X167.591 Y111.149 E0.52057
G1 X167.518 Y111.992 E0.02653
G1 X167.084 Y113.346 E0.04460
G1 X166.726 Y113.970 E0.02253
G1 X166.289 Y114.532 E0.02235
G1 X165.200 Y115.448 E0.04460
G1 X163.901 Y116.026 E0.04460
G1 X162.514 Y116.222 E0.04390
G1 X87.282 Y116.218 E2.35887
G1 X86.497 Y116.123 E0.02479
G1 X85.731 Y115.905 E0.02497
G1 X85.008 Y115.571 E0.02497
G1 X84.351 Y115.131 E0.02479
G1 X83.765 Y114.591 E0.02497
G1 X83.275 Y113.971 E0.02479
G1 X82.886 Y113.282 E0.02479
G1 X82.607 Y112.537 E0.02497
G1 X82.410 Y111.167 E0.04338
G1 X82.410 Y94.982 E0.50748
G1 X82.470 Y94.216 E0.02410
G1 X82.632 Y93.510 E0.02270
G1 X82.892 Y92.834 E0.02270
G1 X83.246 Y92.203 E0.02270
G1 X83.686 Y91.627 E0.02270
G1 X84.203 Y91.120 E0.02270
G1 X84.786 Y90.692 E0.02270
G1 X85.419 Y90.353 E0.02253
G1 X86.043 Y90.125 E0.02082
G1 F8640
G1 X87.486 Y89.908 E-0.33688
G1 X98.370 Y89.908 E-2.51312
G1 E-0.15000 F2100.00000
G1 Z0.400 F10800.000
G1 X130.309 Y108.800
G1 Z0.200
G1 E3.00000 F2100.00000
G1 F660
G1 X119.715 Y108.800 E0.33215
G1 X119.699 Y111.181 E0.07466
G1 X119.490 Y112.160 E0.03138
G1 X118.993 Y113.176 E0.03548
G1 X118.069 Y114.219 E0.04367
G1 X117.004 Y114.919 E0.03997
G1 X115.515 Y115.328 E0.04841
G1 X87.043 Y115.329 E0.89272
G1 X85.684 Y115.001 E0.04383
G1 X84.468 Y114.255 E0.04473
G1 X83.449 Y113.083 E0.04870
G1 X82.879 Y111.733 E0.04593
G1 X82.787 Y111.013 E0.02278
G1 X82.814 Y94.388 E0.52124
G1 X83.193 Y93.107 E0.04189
G1 X83.898 Y92.036 E0.04022
G1 X85.030 Y91.055 E0.04695
G1 X86.380 Y90.484 E0.04598
G1 X87.102 Y90.391 E0.02281
G1 X162.987 Y90.394 E2.37931
G1 X163.935 Y90.578 E0.03030
G1 X164.844 Y90.969 E0.03101
G1 X166.062 Y91.993 E0.04990
G1 X166.853 Y93.210 E0.04550
G1 X167.214 Y94.593 E0.04482
G1 X167.186 Y111.331 E0.52478
G1 X166.808 Y112.610 E0.04185
G1 X166.104 Y113.682 E0.04019
G1 X164.973 Y114.663 E0.04695
G1 X163.621 Y115.236 E0.04603
G1 X162.899 Y115.329 E0.02283
G1 X134.601 Y115.329 E0.88727
G1 X133.875 Y115.235 E0.02295
G1 X132.257 Y114.485 E0.05592
G1 X131.392 Y113.677 E0.03710
G1 X130.746 Y112.725 E0.03608
G1 X130.345 Y111.517 E0.03990
G1 X130.310 Y108.860 E0.08332
G1 X130.681 Y108.423 F10800.000
G1 F660
G1 X119.340 Y108.423 E0.35559
G1 X119.326 Y111.124 E0.08468
G1 X119.141 Y112.016 E0.02857
G1 X118.665 Y112.987 E0.03390
G1 X117.805 Y113.948 E0.04044
G1 X116.823 Y114.587 E0.03674
G1 X115.490 Y114.951 E0.04334
G1 X87.066 Y114.952 E0.89121
G1 X85.802 Y114.642 E0.04078
G1 X84.732 Y113.985 E0.03938
G1 X83.783 Y112.906 E0.04503
G1 X83.249 Y111.658 E0.04256
G1 X83.164 Y111.000 E0.02080
G1 X83.184 Y94.467 E0.51839
G1 X83.525 Y93.289 E0.03847
G1 X84.167 Y92.301 E0.03693
G1 X85.207 Y91.389 E0.04336
G1 X86.456 Y90.854 E0.04261
G1 X87.114 Y90.768 E0.02083
G1 X162.968 Y90.771 E2.37833
G1 X163.841 Y90.944 E0.02792
G1 X164.667 Y91.304 E0.02824
G1 X165.797 Y92.263 E0.04648
G1 X166.496 Y93.336 E0.04017
G1 X166.837 Y94.618 E0.04157
G1 X166.816 Y111.252 E0.52154
M73 Q1 S103
G1 X166.476 Y112.429 E0.03843
G1 X165.835 Y113.416 E0.03690
G1 X164.796 Y114.329 E0.04336
G1 X163.546 Y114.865 E0.04265
M73 P1 R101
G1 X162.887 Y114.952 E0.02085
G1 X134.614 Y114.952 E0.88649
G1 X133.953 Y114.865 E0.02090
G1 X132.493 Y114.188 E0.05045
G1 X131.666 Y113.416 E0.03548
G1 X131.073 Y112.536 E0.03328
G1 X130.722 Y111.483 E0.03480
G1 X130.682 Y108.483 E0.09407
G1 X131.053 Y108.046 F10800.000
G1 F660
G1 X118.964 Y108.046 E0.37905
G1 X118.953 Y111.068 E0.09476
G1 X118.791 Y111.872 E0.02573
G1 X118.339 Y112.797 E0.03227
G1 X117.543 Y113.676 E0.03717
G1 X116.644 Y114.254 E0.03351
G1 X115.465 Y114.574 E0.03831
G1 X87.088 Y114.574 E0.88974
G1 X85.972 Y114.304 E0.03600
G1 X84.994 Y113.712 E0.03585
G1 X84.117 Y112.727 E0.04134
G1 X83.620 Y111.582 E0.03916
G1 X83.541 Y110.988 E0.01879
G1 X83.554 Y94.544 E0.51559
G1 X83.858 Y93.468 E0.03507
G1 X84.438 Y92.565 E0.03364
G1 X85.385 Y91.723 E0.03975
G1 X86.532 Y91.224 E0.03921
G1 X87.127 Y91.145 E0.01882
G1 X162.949 Y91.149 E2.37733
G1 X163.746 Y91.310 E0.02551
G1 X164.489 Y91.637 E0.02545
G1 X165.530 Y92.530 E0.04302
G1 X166.163 Y93.515 E0.03669
G1 X166.459 Y94.642 E0.03655
G1 X166.446 Y111.175 E0.51838
G1 X166.143 Y112.250 E0.03503
G1 X165.564 Y113.153 E0.03361
G1 X164.617 Y113.996 E0.03976
G1 X163.469 Y114.495 E0.03924
G1 X162.874 Y114.575 E0.01883
G1 X134.626 Y114.575 E0.88569
G1 X134.031 Y114.495 E0.01884
G1 X132.728 Y113.892 E0.04501
G1 X131.939 Y113.156 E0.03383
G1 X131.401 Y112.347 E0.03045
G1 X131.099 Y111.448 E0.02975
G1 X131.054 Y108.106 E0.10480
G1 X131.425 Y107.669 F10800.000
G1 F660
G1 X118.587 Y107.669 E0.40251
G1 X118.579 Y111.015 E0.10492
G1 X118.441 Y111.730 E0.02283
G1 X118.012 Y112.606 E0.03060
G1 X117.283 Y113.402 E0.03384
G1 X116.467 Y113.920 E0.03031
G1 X115.440 Y114.197 E0.03334
G1 X87.110 Y114.197 E0.88828
G1 X86.140 Y113.965 E0.03128
G1 X85.254 Y113.438 E0.03233
G1 X84.449 Y112.547 E0.03764
G1 X83.990 Y111.504 E0.03572
G1 X83.918 Y110.975 E0.01674
G1 X83.924 Y94.619 E0.51283
G1 X84.192 Y93.645 E0.03168
G1 X84.710 Y92.827 E0.03036
G1 X85.566 Y92.055 E0.03614
G1 X86.610 Y91.594 E0.03577
G1 X87.140 Y91.522 E0.01677
G1 X162.929 Y91.526 E2.37631
G1 X163.649 Y91.674 E0.02305
G1 X164.309 Y91.969 E0.02266
G1 X165.263 Y92.797 E0.03960
G1 X165.807 Y93.641 E0.03149
G1 X166.082 Y94.667 E0.03330
G1 X166.076 Y111.100 E0.51525
G1 X165.809 Y112.074 E0.03165
G1 X165.292 Y112.891 E0.03033
G1 X164.436 Y113.664 E0.03614
G1 X163.392 Y114.125 E0.03581
G1 X162.861 Y114.197 E0.01679
G1 X134.639 Y114.197 E0.88487
G1 X134.109 Y114.125 E0.01676
G1 X132.963 Y113.596 E0.03958
G1 X132.213 Y112.895 E0.03221
G1 X131.749 Y112.200 E0.02619
G1 X131.475 Y111.412 E0.02617
G1 X131.426 Y107.729 E0.11549
G1 X131.797 Y107.292 F10800.000
G1 F660
G1 X118.211 Y107.292 E0.42599
G1 X118.205 Y110.964 E0.11516
G1 X118.091 Y111.588 E0.01988
G1 X117.686 Y112.415 E0.02887
G1 X117.024 Y113.126 E0.03045
G1 X116.291 Y113.585 E0.02713
G1 X115.416 Y113.820 E0.02842
G1 X87.131 Y113.820 E0.88683
G1 X86.305 Y113.625 E0.02663
G1 X85.511 Y113.161 E0.02882
G1 X84.780 Y112.364 E0.03392
G1 X84.359 Y111.425 E0.03226
G1 X84.295 Y110.962 E0.01466
G1 X84.295 Y94.692 E0.51014
G1 X84.527 Y93.819 E0.02831
G1 X84.985 Y93.086 E0.02708
G1 X85.749 Y92.386 E0.03252
G1 X86.689 Y91.964 E0.03230
G1 X87.153 Y91.899 E0.01469
G1 X162.910 Y91.903 E2.37529
G1 X163.514 Y92.027 E0.01933
G1 X164.128 Y92.302 E0.02111
G1 X164.993 Y93.062 E0.03609
G1 X165.472 Y93.818 E0.02809
G1 X165.705 Y94.692 E0.02834
G1 X165.705 Y111.028 E0.51221
G1 X165.473 Y111.899 E0.02828
G1 X165.017 Y112.632 E0.02706
G1 X164.253 Y113.333 E0.03252
G1 X163.312 Y113.756 E0.03234
G1 X162.848 Y113.820 E0.01470
G1 X134.653 Y113.820 E0.88404
M73 Q2 S102
M73 P2 R100
G1 X134.189 Y113.756 E0.01468
G1 X133.198 Y113.300 E0.03419
G1 X132.486 Y112.634 E0.03058
G1 X132.095 Y112.050 E0.02203
G1 X131.852 Y111.374 E0.02252
G1 X131.798 Y107.352 E0.12614
G1 X132.169 Y106.914 F10800.000
G1 F660
G1 X117.834 Y106.914 E0.44946
G1 X117.828 Y110.948 E0.12647
G1 X117.740 Y111.447 E0.01587
G1 X117.360 Y112.223 E0.02710
G1 X116.767 Y112.849 E0.02705
G1 X116.164 Y113.230 E0.02237
G1 X115.389 Y113.443 E0.02517
G1 X87.153 Y113.443 E0.88535
G1 X86.467 Y113.284 E0.02206
G1 X85.766 Y112.882 E0.02533
G1 X85.110 Y112.178 E0.03019
G1 X84.728 Y111.344 E0.02875
G1 X84.672 Y110.948 E0.01254
G1 X84.672 Y94.717 E0.50890
G1 X84.883 Y93.946 E0.02507
G1 X85.260 Y93.345 E0.02225
G1 X85.935 Y92.715 E0.02895
G1 X86.770 Y92.333 E0.02880
G1 X87.167 Y92.276 E0.01256
G1 X162.889 Y92.280 E2.37423
G1 X163.414 Y92.391 E0.01682
G1 X163.945 Y92.633 E0.01829
G1 X164.722 Y93.325 E0.03263
G1 X165.117 Y93.946 E0.02306
G1 X165.328 Y94.717 E0.02509
G1 X165.328 Y111.002 E0.51058
G1 X165.117 Y111.772 E0.02505
G1 X164.741 Y112.373 E0.02223
G1 X164.067 Y113.003 E0.02894
G1 X163.231 Y113.387 E0.02883
G1 X162.834 Y113.443 E0.01257
G1 X134.666 Y113.443 E0.88318
G1 X134.269 Y113.387 E0.01257
G1 X133.434 Y113.003 E0.02883
G1 X132.759 Y112.373 E0.02894
G1 X132.440 Y111.896 E0.01802
G1 X132.228 Y111.335 E0.01879
G1 X132.170 Y106.974 E0.13673
G1 X132.542 Y106.537 F10800.000
G1 F660
G1 X117.458 Y106.537 E0.47297
G1 X117.451 Y110.933 E0.13781
G1 X117.388 Y111.310 E0.01198
G1 X117.065 Y111.986 E0.02349
G1 X116.509 Y112.573 E0.02536
G1 X116.033 Y112.875 E0.01766
G1 X115.362 Y113.066 E0.02187
G1 X87.173 Y113.066 E0.88385
G1 X86.627 Y112.941 E0.01758
G1 X86.019 Y112.600 E0.02186
G1 X85.437 Y111.989 E0.02644
G1 X85.097 Y111.261 E0.02522
G1 X85.049 Y110.934 E0.01036
G1 X85.049 Y94.744 E0.50761
G1 X85.238 Y94.076 E0.02178
G1 X85.537 Y93.601 E0.01759
G1 X86.124 Y93.043 E0.02539
G1 X86.854 Y92.702 E0.02526
G1 X87.181 Y92.653 E0.01038
G1 X162.868 Y92.657 E2.37311
G1 X163.312 Y92.755 E0.01424
G1 X163.760 Y92.962 E0.01548
G1 X164.450 Y93.587 E0.02920
G1 X164.762 Y94.076 E0.01817
G1 X164.951 Y94.744 E0.02178
G1 X164.951 Y110.975 E0.50890
G1 X164.762 Y111.643 E0.02176
G1 X164.464 Y112.117 E0.01757
G1 X163.878 Y112.676 E0.02539
G1 X163.147 Y113.018 E0.02528
G1 X162.820 Y113.066 E0.01039
G1 X134.681 Y113.066 E0.88228
G1 X134.353 Y113.018 E0.01039
G1 X133.623 Y112.676 E0.02528
G1 X133.036 Y112.117 E0.02542
G1 X132.767 Y111.708 E0.01533
G1 X132.594 Y111.236 E0.01577
G1 X132.543 Y106.597 E0.14545
G1 X132.806 Y106.160 F10800.000
G1 F660
G1 X117.203 Y106.160 E0.48925
G1 X117.109 Y106.427 E0.00887
G1 X117.081 Y106.613 E0.00589
G1 X117.074 Y110.919 E0.13502
G1 X117.035 Y111.173 E0.00806
G1 X116.739 Y111.795 E0.02159
G1 X116.254 Y112.295 E0.02183
G1 X115.900 Y112.521 E0.01319
G1 X115.334 Y112.688 E0.01849
G1 X87.194 Y112.689 E0.88233
G1 X86.783 Y112.597 E0.01319
G1 X86.268 Y112.316 E0.01841
G1 X85.763 Y111.797 E0.02268
G1 X85.465 Y111.175 E0.02164
G1 X85.426 Y110.919 E0.00811
G1 X85.426 Y94.772 E0.50626
G1 X85.592 Y94.209 E0.01842
G1 X85.817 Y93.855 E0.01313
G1 X86.316 Y93.368 E0.02188
G1 X86.940 Y93.070 E0.02168
G1 X87.196 Y93.030 E0.00813
G1 X162.846 Y93.034 E2.37195
G1 X163.206 Y93.117 E0.01157
G1 X163.571 Y93.290 E0.01269
G1 X164.176 Y93.848 E0.02580
G1 X164.408 Y94.209 E0.01347
G1 X164.574 Y94.772 E0.01841
G1 X164.574 Y110.947 E0.50714
G1 X164.409 Y111.510 E0.01840
G1 X164.184 Y111.863 E0.01312
G1 X163.685 Y112.350 E0.02187
G1 X163.061 Y112.650 E0.02170
G1 X162.805 Y112.689 E0.00813
G1 X134.696 Y112.689 E0.88134
G1 X134.439 Y112.650 E0.00813
G1 X133.815 Y112.350 E0.02170
G1 X133.316 Y111.863 E0.02188
G1 X133.097 Y111.523 E0.01267
G1 X132.959 Y111.140 E0.01277
G1 X132.926 Y106.766 E0.13714
G1 X132.906 Y106.497 E0.00848
G1 X132.824 Y106.218 E0.00912
G1 X132.963 Y105.783 F10800.000
G1 F660
G1 X117.019 Y105.783 E0.49991
G1 X116.852 Y106.021 E0.00912
G1 X116.741 Y106.335 E0.01044
G1 X116.704 Y106.584 E0.00789
G1 X116.697 Y110.903 E0.13542
G1 X116.668 Y111.084 E0.00575
G1 X116.415 Y111.599 E0.01799
G1 X116.002 Y112.015 E0.01837
G1 X115.762 Y112.170 E0.00896
G1 X115.305 Y112.311 E0.01501
G1 X87.213 Y112.312 E0.88079
M73 Q3 S101
M73 P3 R99
G1 X86.935 Y112.251 E0.00894
G1 X86.513 Y112.028 E0.01498
G1 X86.087 Y111.601 E0.01891
G1 X85.833 Y111.085 E0.01804
G1 X85.803 Y110.903 E0.00578
G1 X85.803 Y94.802 E0.50484
G1 X85.944 Y94.346 E0.01495
G1 X86.098 Y94.107 E0.00892
G1 X86.513 Y93.692 E0.01841
G1 X87.030 Y93.437 E0.01806
G1 X87.212 Y93.407 E0.00579
G1 X162.824 Y93.411 E2.37077
G1 X163.063 Y93.466 E0.00767
G1 X163.383 Y93.618 E0.01110
G1 X163.901 Y94.106 E0.02233
G1 X164.056 Y94.346 E0.00898
G1 X164.197 Y94.802 E0.01495
G1 X164.197 Y110.917 E0.50529
G1 X164.057 Y111.373 E0.01494
G1 X163.903 Y111.612 E0.00891
G1 X163.489 Y112.027 E0.01840
G1 X162.971 Y112.282 E0.01808
G1 X162.789 Y112.312 E0.00580
G1 X134.711 Y112.312 E0.88035
G1 X134.529 Y112.282 E0.00580
G1 X134.012 Y112.027 E0.01808
G1 X133.597 Y111.612 E0.01841
G1 X133.444 Y111.376 E0.00881
G1 X133.325 Y111.043 E0.01107
G1 X133.303 Y106.752 E0.13457
G1 X133.280 Y106.445 E0.00963
G1 X133.226 Y106.212 E0.00752
G1 X133.100 Y105.942 E0.00935
G1 X133.002 Y105.829 E0.00468
G1 X133.095 Y105.435 F10800.000
G1 F660
G1 X132.947 Y105.406 E0.00473
G1 X117.054 Y105.406 E0.49831
G1 X116.906 Y105.435 E0.00473
G1 X116.768 Y105.517 E0.00502
G1 X116.636 Y105.658 E0.00606
G1 X116.509 Y105.861 E0.00751
G1 X116.374 Y106.244 E0.01272
G1 X116.326 Y106.555 E0.00989
G1 X116.320 Y110.885 E0.13576
G1 X116.301 Y110.993 E0.00342
G1 X116.125 Y111.356 E0.01265
G1 X115.748 Y111.735 E0.01678
G1 X115.618 Y111.820 E0.00486
G1 X115.273 Y111.934 E0.01140
G1 X87.232 Y111.935 E0.87920
G1 X87.081 Y111.903 E0.00485
G1 X86.757 Y111.739 E0.01138
G1 X86.376 Y111.357 E0.01691
G1 X86.199 Y110.994 E0.01268
G1 X86.180 Y110.886 E0.00344
G1 X86.180 Y94.834 E0.50330
G1 X86.293 Y94.489 E0.01136
G1 X86.378 Y94.360 E0.00484
G1 X86.757 Y93.981 E0.01682
G1 X87.121 Y93.803 E0.01270
G1 X87.229 Y93.784 E0.00345
G1 X162.802 Y93.788 E2.36953
G1 X162.919 Y93.816 E0.00377
G1 X163.192 Y93.945 E0.00948
G1 X163.623 Y94.362 E0.01880
G1 X163.707 Y94.489 E0.00479
G1 X163.820 Y94.834 E0.01136
G1 X163.820 Y110.886 E0.50331
G1 X163.707 Y111.230 E0.01135
G1 X163.623 Y111.359 E0.00483
G1 X163.244 Y111.738 E0.01681
G1 X162.880 Y111.916 E0.01271
G1 X162.771 Y111.935 E0.00345
G1 X134.729 Y111.935 E0.87925
G1 X134.620 Y111.916 E0.00345
G1 X134.256 Y111.738 E0.01271
G1 X133.877 Y111.359 E0.01681
G1 X133.792 Y111.228 E0.00491
G1 X133.691 Y110.947 E0.00934
G1 X133.680 Y106.737 E0.13200
G1 X133.654 Y106.388 E0.01097
G1 X133.584 Y106.088 E0.00967
G1 X133.419 Y105.735 E0.01223
G1 X133.229 Y105.515 E0.00909
G1 X133.146 Y105.466 E0.00303
G1 X133.338 Y105.141 F10800.000
G1 F660
G1 X133.231 Y105.078 E0.00390
G1 X132.983 Y105.029 E0.00791
G1 X117.017 Y105.029 E0.50062
G1 X116.769 Y105.078 E0.00791
G1 X116.529 Y105.220 E0.00875
G1 X116.336 Y105.427 E0.00888
G1 X116.167 Y105.696 E0.00995
G1 X116.006 Y106.152 E0.01515
G1 X115.949 Y106.526 E0.01188
G1 X115.937 Y110.896 E0.13701
G1 X115.834 Y111.114 E0.00754
G1 X115.493 Y111.457 E0.01518
G1 X115.238 Y111.557 E0.00860
G1 X87.218 Y111.551 E0.87854
G1 X86.999 Y111.448 E0.00758
G1 X86.667 Y111.115 E0.01476
G1 X86.557 Y110.865 E0.00855
G1 X86.557 Y94.869 E0.50155
G1 X86.657 Y94.614 E0.00856
G1 X87.000 Y94.271 E0.01522
G1 X87.250 Y94.162 E0.00857
G1 X162.750 Y94.162 E2.36724
G1 X163.000 Y94.271 E0.00857
G1 X163.343 Y94.614 E0.01522
G1 X163.443 Y94.869 E0.00856
G1 X163.443 Y110.851 E0.50111
G1 X163.344 Y111.105 E0.00855
G1 X163.001 Y111.448 E0.01520
G1 X162.782 Y111.552 E0.00758
