; generated by PrusaSlicer 2.1.0+win64 on 2020-12-03 at 13:30:42 UTC

; 

; external perimeters extrusion width = 0.45mm
; perimeters extrusion width = 0.45mm
; infill extrusion width = 0.45mm
; solid infill extrusion width = 0.45mm
; top infill extrusion width = 0.40mm
; support material extrusion width = 0.35mm
; first layer extrusion width = 0.42mm

M73 P0 R116
M73 Q0 S117
M201 X1000 Y1000 Z1000 E5000 ; sets maximum accelerations, mm/sec^2
M203 X200 Y200 Z12 E120 ; sets maximum feedrates, mm/sec
M204 P1250 R1250 T1250 ; sets acceleration (P, T) and retract acceleration (R), mm/sec^2
M205 X8.00 Y8.00 Z0.40 E1.50 ; sets the jerk limits, mm/sec
M205 S0 T0 ; sets the minimum extruding and travel feed rate, mm/sec
M107
M862.3 P "MK3" ; printer model check
M862.1 P0.4 ; nozzle diameter check
M115 U3.8.0 ; tell printer latest fw version
G90 ; use absolute coordinates
M83 ; extruder relative mode
M104 S215 ; set extruder temp
M140 S60 ; set bed temp
M190 S60 ; wait for bed temp
M109 S215 ; wait for extruder temp
G28 W ; home all without mesh bed level
G80 ; mesh bed leveling
G1 Y-3.0 F1000.0 ; go outside print area
G92 E0.0
G1 X60.0 E9.0 F1000.0 ; intro line
M73 Q0 S117
M73 P0 R116
G1 X100.0 E12.5 F1000.0 ; intro line
G92 E0.0
M221 S95
G21 ; set units to millimeters
G90 ; use absolute coordinates
M83 ; use relative distances for extrusion
M900 K30 ; Filament gcode
;BEFORE_LAYER_CHANGE
G92 E0.0
;0.2


G1 E-3.00000 F2100.00000
G1 Z0.200 F10800.000
;AFTER_LAYER_CHANGE
;0.2
G1 Z0.400
G1 X73.066 Y63.580
G1 Z0.200
G1 E3.00000 F2100.00000
M204 S1000
G1 F660
G1 X73.754 Y62.962 E0.02901
G1 X74.845 Y62.231 E0.04117
G1 X75.808 Y61.771 E0.03347
G1 X77.089 Y61.381 E0.04197
G1 X78.203 Y61.220 E0.03530
G1 X152.014 Y56.915 E2.31822
G1 X174.249 Y56.909 E0.69717
G1 X175.224 Y57.005 E0.03071
G1 X176.157 Y57.283 E0.03054
G1 X177.021 Y57.734 E0.03054
G1 X177.786 Y58.345 E0.03071
G1 X178.418 Y59.086 E0.03054
G1 X178.898 Y59.940 E0.03071
G1 X179.206 Y60.864 E0.03054
G1 X179.331 Y61.830 E0.03054
G1 X179.333 Y148.106 E2.70513
G1 X179.188 Y149.209 E0.03488
G1 X178.805 Y150.259 E0.03506
G1 X178.205 Y151.197 E0.03488
G1 X177.416 Y151.981 E0.03488
G1 X176.747 Y152.432 E0.02532
G1 X176.015 Y152.773 E0.02532
G1 X175.238 Y152.993 E0.02532
G1 X174.436 Y153.087 E0.02532
G1 X152.221 Y153.091 E0.69653
G1 X151.187 Y152.980 E0.03263
G1 X83.310 Y133.156 E2.21712
G1 X82.599 Y132.880 E0.02392
G1 X81.938 Y132.500 E0.02392
G1 X81.336 Y132.021 E0.02410
G1 X80.817 Y131.462 E0.02392
G1 X80.145 Y130.355 E0.04061
G1 X79.774 Y129.114 E0.04061
G1 X70.764 Y70.237 E1.86755
G1 X70.710 Y69.083 E0.03620
G1 X70.788 Y68.139 E0.02970
G1 X70.977 Y67.221 E0.02940
G1 X71.359 Y66.108 E0.03688
G1 X71.783 Y65.254 E0.02990
G1 X72.304 Y64.462 E0.02972
G1 X73.026 Y63.625 E0.03467
G1 F8640
G1 X73.754 Y62.962 E-0.22736
G1 X74.845 Y62.231 E-0.30320
G1 X75.808 Y61.771 E-0.24645
G1 X77.089 Y61.381 E-0.30905
G1 X78.203 Y61.220 E-0.25997
G1 X84.705 Y60.841 E-1.50397
G1 E-0.15000 F2100.00000
G1 Z0.400 F10800.000
G1 X147.530 Y137.060
G1 Z0.200
G1 E3.00000 F2100.00000
G1 F660
G1 X147.246 Y136.988 E0.00919
G1 X146.930 Y137.568 E0.02071
G1 X146.413 Y138.284 E0.02769
G1 X145.921 Y138.815 E0.02271
G1 X145.439 Y139.241 E0.02017
G1 X144.924 Y139.615 E0.01995
G1 X144.189 Y140.032 E0.02650
G1 X143.410 Y140.354 E0.02644
G1 X142.646 Y140.565 E0.02483
G1 X142.016 Y140.669 E0.02002
G1 X141.414 Y140.710 E0.01893
G1 X115.172 Y140.713 E0.82281
G1 X114.430 Y140.670 E0.02330
G1 X113.696 Y140.557 E0.02328
G1 X113.085 Y140.405 E0.01973
G1 X112.503 Y140.210 E0.01926
G1 X111.790 Y139.897 E0.02443
G1 X111.104 Y139.509 E0.02469
G1 X110.457 Y139.049 E0.02490
G1 X109.939 Y138.600 E0.02149
G1 X109.458 Y138.101 E0.02173
G1 X109.001 Y137.530 E0.02293
G1 X108.602 Y136.923 E0.02279
G1 X108.265 Y136.285 E0.02260
G1 X107.985 Y135.611 E0.02291
G1 X107.760 Y134.867 E0.02437
G1 X107.610 Y134.108 E0.02425
G1 X107.538 Y133.338 E0.02425
G1 X107.538 Y132.999 E0.01063
G1 X84.384 Y133.001 E0.72596
G1 X83.325 Y132.803 E0.03379
G1 X82.297 Y132.321 E0.03560
G1 X81.014 Y131.137 E0.05475
G1 X80.393 Y130.059 E0.03901
G1 X80.083 Y128.797 E0.04076
G1 X80.103 Y113.760 E0.47146
G1 X80.436 Y112.491 E0.04113
G1 X81.093 Y111.365 E0.04088
G1 X84.083 Y108.338 E0.13341
G1 X84.073 Y77.008 E0.98233
G1 X78.678 Y77.000 E0.16918
G1 X78.052 Y76.965 E0.01964
G1 X77.361 Y76.866 E0.02189
G1 X76.653 Y76.697 E0.02283
G1 X75.979 Y76.468 E0.02233
G1 X75.332 Y76.179 E0.02220
G1 X74.710 Y75.830 E0.02236
G1 X74.059 Y75.375 E0.02490
G1 X73.515 Y74.909 E0.02248
G1 X73.009 Y74.387 E0.02279
G1 X72.500 Y73.743 E0.02572
G1 X72.105 Y73.124 E0.02304
G1 X71.771 Y72.472 E0.02296
G1 X71.503 Y71.797 E0.02278
G1 X71.298 Y71.096 E0.02288
G1 X71.161 Y70.378 E0.02291
G1 X71.092 Y69.657 E0.02272
G1 X71.092 Y68.917 E0.02321
G1 X71.161 Y68.200 E0.02258
G1 X71.291 Y67.509 E0.02204
G1 X71.487 Y66.826 E0.02228
G1 X71.822 Y65.994 E0.02810
G1 X72.106 Y65.451 E0.01924
G1 X72.457 Y64.894 E0.02062
G1 X72.992 Y64.209 E0.02727
G1 X73.473 Y63.706 E0.02183
G1 X73.992 Y63.254 E0.02159
G1 X74.663 Y62.775 E0.02584
G1 X75.250 Y62.438 E0.02123
G1 X75.861 Y62.155 E0.02112
G1 X76.500 Y61.924 E0.02129
G1 X77.279 Y61.725 E0.02520
G1 X77.982 Y61.618 E0.02229
G1 X78.687 Y61.576 E0.02217
G1 X104.935 Y61.576 E0.82298
G1 X105.557 Y61.618 E0.01956
G1 X106.157 Y61.713 E0.01905
G1 X106.993 Y61.944 E0.02718
G1 X107.658 Y62.215 E0.02252
G1 X108.298 Y62.559 E0.02277
G1 X108.968 Y63.028 E0.02565
G1 X109.528 Y63.525 E0.02347
G1 X109.981 Y64.023 E0.02112
G1 X110.477 Y64.710 E0.02657
G1 X110.855 Y65.395 E0.02453
G1 X111.143 Y66.098 E0.02381
G1 X111.333 Y66.755 E0.02143
G1 X111.455 Y67.427 E0.02142
G1 X111.509 Y68.164 E0.02318
G1 X111.510 Y86.842 E0.58561
G1 X113.567 Y88.952 E0.09240
G1 X114.185 Y90.062 E0.03984
G1 X114.511 Y91.423 E0.04387
G1 X114.410 Y104.807 E0.41965
G1 X114.064 Y105.803 E0.03307
G1 X113.500 Y106.714 E0.03359
G1 X111.510 Y108.737 E0.08896
M73 Q0 S116
G1 X111.510 Y126.236 E0.54866
M73 P0 R115
G1 X112.379 Y125.838 E0.02996
G1 X113.031 Y125.610 E0.02166
G1 X113.717 Y125.439 E0.02216
G1 X114.449 Y125.328 E0.02321
G1 X115.187 Y125.286 E0.02316
G1 X120.520 Y125.286 E0.16722
G1 X120.529 Y93.952 E0.98248
G1 X117.543 Y90.938 E0.13303
G1 X116.688 Y89.244 E0.05949
G1 X116.530 Y88.255 E0.03142
G1 X116.530 Y73.485 E0.46308
G1 X116.868 Y72.159 E0.04293
G1 X117.609 Y70.970 E0.04391
G1 X118.693 Y69.995 E0.04572
G1 X119.511 Y69.585 E0.02870
G1 X120.734 Y69.286 E0.03948
G1 X143.736 Y69.290 E0.72119
G1 X144.841 Y69.528 E0.03544
G1 X145.831 Y70.024 E0.03472
G1 X146.976 Y71.088 E0.04903
G1 X147.257 Y71.539 E0.01665
G1 X147.530 Y71.461 E0.00892
G1 X147.533 Y61.556 E0.31056
G1 X147.716 Y60.569 E0.03148
G1 X148.356 Y59.287 E0.04492
G1 X149.404 Y58.209 E0.04714
G1 X150.428 Y57.614 E0.03716
G1 X151.734 Y57.286 E0.04222
G1 X174.730 Y57.290 E0.72101
G1 X175.678 Y57.474 E0.03028
G1 X176.587 Y57.865 E0.03101
G1 X177.805 Y58.888 E0.04990
G1 X178.596 Y60.106 E0.04551
G1 X178.957 Y61.489 E0.04481
G1 X178.957 Y148.410 E2.72536
G1 X178.757 Y149.475 E0.03397
G1 X178.237 Y150.560 E0.03774
G1 X177.101 Y151.777 E0.05220
G1 X176.079 Y152.377 E0.03715
G1 X174.757 Y152.713 E0.04278
G1 X151.833 Y152.713 E0.71874
G1 X150.769 Y152.514 E0.03397
G1 X149.683 Y151.993 E0.03774
G1 X148.466 Y150.857 E0.05220
G1 X147.866 Y149.835 E0.03716
G1 X147.536 Y148.560 E0.04129
G1 X147.530 Y137.120 E0.35870
G1 F8640
G1 X147.246 Y136.988 E-0.07234
G1 X146.930 Y137.568 E-0.15249
G1 X146.413 Y138.284 E-0.20393
G1 X145.921 Y138.815 E-0.16722
G1 X145.439 Y139.241 E-0.14852
G1 X144.924 Y139.615 E-0.14694
G1 X144.189 Y140.032 E-0.19513
G1 X143.410 Y140.354 E-0.19472
G1 X142.646 Y140.565 E-0.18285
G1 X142.016 Y140.669 E-0.14741
G1 X141.414 Y140.710 E-0.13938
G1 X136.654 Y140.711 E-1.09908
G1 E-0.15000 F2100.00000
G1 Z0.400 F10800.000
G1 X147.907 Y134.625
G1 Z0.200
G1 E3.00000 F2100.00000
G1 F660
G1 X147.563 Y134.596 E0.01084
G1 X147.417 Y135.425 E0.02639
G1 X147.237 Y136.057 E0.02062
G1 X146.998 Y136.653 E0.02014
G1 X146.617 Y137.358 E0.02511
G1 X146.127 Y138.037 E0.02624
G1 X145.664 Y138.540 E0.02145
G1 X145.210 Y138.941 E0.01901
G1 X144.711 Y139.304 E0.01933
G1 X144.014 Y139.698 E0.02512
G1 X143.277 Y140.001 E0.02497
G1 X142.556 Y140.199 E0.02344
G1 X141.981 Y140.293 E0.01827
G1 X141.407 Y140.333 E0.01803
G1 X115.177 Y140.336 E0.82243
G1 X114.461 Y140.294 E0.02250
G1 X113.763 Y140.185 E0.02216
G1 X113.198 Y140.045 E0.01825
G1 X112.646 Y139.861 E0.01824
G1 X111.967 Y139.564 E0.02325
G1 X111.299 Y139.185 E0.02407
G1 X110.684 Y138.747 E0.02369
G1 X110.193 Y138.321 E0.02038
G1 X109.736 Y137.846 E0.02067
G1 X109.301 Y137.302 E0.02183
G1 X108.922 Y136.724 E0.02168
G1 X108.610 Y136.133 E0.02095
G1 X108.337 Y135.475 E0.02233
G1 X108.123 Y134.767 E0.02318
G1 X107.982 Y134.045 E0.02306
G1 X107.914 Y133.313 E0.02306
G1 X107.920 Y132.468 E0.02649
G1 X107.286 Y132.624 E0.02047
G1 X84.401 Y132.624 E0.71752
G1 X83.463 Y132.452 E0.02991
G1 X82.484 Y131.992 E0.03392
G1 X81.325 Y130.923 E0.04944
G1 X80.752 Y129.941 E0.03564
G1 X80.460 Y128.774 E0.03773
G1 X80.480 Y113.786 E0.46994
G1 X80.793 Y112.615 E0.03801
G1 X81.405 Y111.578 E0.03776
G1 X84.460 Y108.493 E0.13611
G1 X84.450 Y76.631 E0.99900
G1 X78.693 Y76.623 E0.18052
G1 X78.097 Y76.591 E0.01871
G1 X77.423 Y76.494 E0.02135
G1 X76.766 Y76.337 E0.02119
G1 X76.124 Y76.120 E0.02125
G1 X75.509 Y75.846 E0.02112
G1 X74.919 Y75.515 E0.02121
G1 X74.283 Y75.071 E0.02430
G1 X73.767 Y74.629 E0.02132
G1 X73.287 Y74.131 E0.02168
G1 X72.813 Y73.532 E0.02395
G1 X72.428 Y72.929 E0.02245
G1 X72.111 Y72.309 E0.02183
G1 X71.857 Y71.666 E0.02167
G1 X71.663 Y71.000 E0.02176
G1 X71.533 Y70.317 E0.02179
G1 X71.469 Y69.631 E0.02160
G1 X71.469 Y68.926 E0.02209
G1 X71.533 Y68.261 E0.02095
G1 X71.656 Y67.604 E0.02097
G1 X71.840 Y66.957 E0.02108
G1 X72.168 Y66.144 E0.02749
G1 X72.436 Y65.632 E0.01812
G1 X72.760 Y65.119 E0.01903
G1 X73.283 Y64.449 E0.02666
G1 X73.739 Y63.974 E0.02065
G1 X74.233 Y63.544 E0.02051
G1 X74.874 Y63.088 E0.02468
G1 X75.431 Y62.769 E0.02011
G1 X76.012 Y62.501 E0.02008
G1 X76.619 Y62.282 E0.02023
G1 X77.345 Y62.097 E0.02349
G1 X78.030 Y61.992 E0.02172
G1 X78.704 Y61.953 E0.02117
G1 X104.917 Y61.953 E0.82190
G1 X105.507 Y61.991 E0.01854
G1 X106.087 Y62.084 E0.01843
G1 X106.881 Y62.304 E0.02583
G1 X107.506 Y62.560 E0.02116
G1 X108.108 Y62.886 E0.02147
G1 X108.743 Y63.330 E0.02429
G1 X109.256 Y63.787 E0.02154
G1 X109.682 Y64.253 E0.01981
G1 X110.153 Y64.902 E0.02513
G1 X110.519 Y65.568 E0.02383
G1 X110.784 Y66.213 E0.02186
G1 X110.964 Y66.832 E0.02020
G1 X111.082 Y67.484 E0.02078
G1 X111.132 Y68.184 E0.02202
G1 X111.133 Y86.996 E0.58982
G1 X113.251 Y89.159 E0.09493
G1 X113.825 Y90.177 E0.03665
G1 X114.134 Y91.444 E0.04087
G1 X114.043 Y104.712 E0.41603
G1 X113.714 Y105.659 E0.03143
G1 X113.191 Y106.496 E0.03095
G1 X111.133 Y108.582 E0.09188
G1 X111.133 Y126.911 E0.57468
G1 X111.858 Y126.492 E0.02624
G1 X112.512 Y126.191 E0.02259
G1 X113.132 Y125.974 E0.02058
G1 X113.783 Y125.810 E0.02106
G1 X114.479 Y125.704 E0.02209
G1 X115.192 Y125.663 E0.02238
G1 X120.897 Y125.663 E0.17888
G1 X120.907 Y93.796 E0.99919
G1 X117.866 Y90.742 E0.13513
G1 X117.039 Y89.102 E0.05759
G1 X116.907 Y88.241 E0.02730
G1 X116.907 Y73.510 E0.46189
G1 X117.226 Y72.282 E0.03978
G1 X117.881 Y71.231 E0.03882
G1 X118.886 Y70.319 E0.04256
G1 X119.623 Y69.945 E0.02591
G1 X120.758 Y69.663 E0.03665
G1 X143.715 Y69.667 E0.71981
G1 X144.736 Y69.891 E0.03277
G1 X145.636 Y70.347 E0.03164
G1 X146.698 Y71.343 E0.04566
G1 X147.269 Y72.299 E0.03490
G1 X147.578 Y73.479 E0.03825
G1 X147.907 Y73.436 E0.01040
G1 X147.910 Y61.574 E0.37194
M73 Q1 S115
G1 X148.081 Y60.664 E0.02902
G1 X148.646 Y59.529 E0.03976
G1 X149.655 Y58.491 E0.04537
G1 X150.592 Y57.954 E0.03387
G1 X151.757 Y57.664 E0.03764
G1 X174.711 Y57.667 E0.71970
M73 P1 R114
G1 X175.584 Y57.840 E0.02791
G1 X176.410 Y58.199 E0.02823
G1 X177.540 Y59.158 E0.04647
G1 X178.240 Y60.232 E0.04018
G1 X178.580 Y61.513 E0.04157
G1 X178.580 Y148.393 E2.72405
G1 X178.406 Y149.335 E0.03002
G1 X177.909 Y150.371 E0.03605
G1 X176.884 Y151.467 E0.04704
G1 X175.958 Y152.019 E0.03382
G1 X174.732 Y152.336 E0.03968
G1 X151.850 Y152.336 E0.71745
G1 X150.909 Y152.163 E0.03002
G1 X149.872 Y151.666 E0.03605
G1 X148.776 Y150.641 E0.04704
G1 X148.224 Y149.714 E0.03382
G1 X147.907 Y148.489 E0.03968
G1 X147.907 Y134.685 E0.43280
G1 F8640
G1 X147.563 Y134.596 E-0.08220
G1 X147.417 Y135.425 E-0.19436
G1 X147.237 Y136.057 E-0.15183
G1 X146.998 Y136.653 E-0.14829
G1 X146.617 Y137.358 E-0.18494
G1 X146.127 Y138.037 E-0.19325
G1 X145.664 Y138.540 E-0.15794
G1 X145.210 Y138.941 E-0.14001
G1 X144.711 Y139.304 E-0.14233
G1 X144.014 Y139.698 E-0.18499
G1 X143.277 Y140.001 E-0.18387
G1 X142.556 Y140.199 E-0.17265
G1 X141.981 Y140.293 E-0.13453
G1 X141.407 Y140.333 E-0.13281
G1 X138.610 Y140.334 E-0.64600
G1 E-0.15000 F2100.00000
G1 Z0.400 F10800.000
G1 X148.284 Y114.053
G1 Z0.200
G1 E3.00000 F2100.00000
G1 F660
G1 X147.203 Y115.139 E0.04805
G1 X147.203 Y134.056 E0.59312
G1 X147.161 Y134.703 E0.02035
G1 X147.052 Y135.331 E0.01998
G1 X146.883 Y135.926 E0.01938
G1 X146.652 Y136.503 E0.01949
G1 X146.303 Y137.148 E0.02297
G1 X145.842 Y137.790 E0.02480
G1 X145.406 Y138.264 E0.02019
G1 X144.980 Y138.642 E0.01787
G1 X144.515 Y138.981 E0.01805
G1 X143.859 Y139.354 E0.02365
G1 X143.145 Y139.648 E0.02422
G1 X142.485 Y139.828 E0.02145
G1 X141.946 Y139.918 E0.01714
G1 X141.401 Y139.956 E0.01713
G1 X115.194 Y139.959 E0.82171
G1 X114.492 Y139.918 E0.02204
G1 X113.845 Y139.817 E0.02052
G1 X113.296 Y139.681 E0.01775
G1 X112.774 Y139.506 E0.01725
G1 X112.127 Y139.222 E0.02215
G1 X111.494 Y138.862 E0.02284
G1 X110.910 Y138.445 E0.02249
G1 X110.447 Y138.042 E0.01926
G1 X110.014 Y137.591 E0.01961
G1 X109.602 Y137.074 E0.02073
G1 X109.252 Y136.539 E0.02004
G1 X108.955 Y135.979 E0.01987
G1 X108.695 Y135.356 E0.02118
G1 X108.491 Y134.685 E0.02198
G1 X108.354 Y133.983 E0.02245
G1 X108.290 Y133.288 E0.02186
G1 X108.296 Y132.595 E0.02175
G1 X108.362 Y131.959 E0.02003
G1 X107.260 Y132.247 E0.03571
G1 X84.418 Y132.247 E0.71621
G1 X83.601 Y132.100 E0.02603
G1 X82.670 Y131.663 E0.03223
G1 X81.635 Y130.706 E0.04420
G1 X81.110 Y129.821 E0.03227
G1 X80.837 Y128.750 E0.03465
G1 X80.857 Y113.812 E0.46838
G1 X81.150 Y112.740 E0.03484
G1 X81.717 Y111.791 E0.03465
G1 X84.837 Y108.649 E0.13885
G1 X84.827 Y76.255 E1.01568
G1 X78.708 Y76.246 E0.19186
G1 X78.142 Y76.216 E0.01777
G1 X77.485 Y76.122 E0.02080
G1 X76.862 Y75.973 E0.02009
G1 X76.254 Y75.766 E0.02017
G1 X75.685 Y75.513 E0.01951
G1 X75.127 Y75.201 E0.02005
G1 X74.507 Y74.768 E0.02370
G1 X74.020 Y74.349 E0.02015
G1 X73.565 Y73.877 E0.02056
G1 X73.115 Y73.306 E0.02277
G1 X72.751 Y72.734 E0.02128
G1 X72.451 Y72.146 E0.02070
G1 X72.216 Y71.552 E0.02000
G1 X72.028 Y70.903 E0.02119
G1 X71.905 Y70.256 E0.02066
G1 X71.845 Y69.605 E0.02049
G1 X71.847 Y68.936 E0.02097
G1 X71.907 Y68.306 E0.01985
G1 X72.025 Y67.683 E0.01989
G1 X72.200 Y67.071 E0.01995
G1 X72.514 Y66.294 E0.02625
G1 X72.766 Y65.814 E0.01700
G1 X73.063 Y65.343 E0.01745
G1 X73.574 Y64.688 E0.02605
G1 X74.005 Y64.241 E0.01947
G1 X74.473 Y63.835 E0.01943
G1 X75.085 Y63.401 E0.02352
G1 X75.610 Y63.101 E0.01898
G1 X76.162 Y62.847 E0.01905
G1 X76.738 Y62.640 E0.01918
G1 X77.411 Y62.468 E0.02178
G1 X78.078 Y62.366 E0.02114
G1 X78.720 Y62.329 E0.02017
G1 X104.899 Y62.330 E0.82084
G1 X105.457 Y62.365 E0.01751
G1 X106.017 Y62.455 E0.01780
G1 X106.769 Y62.665 E0.02446
G1 X107.353 Y62.905 E0.01980
G1 X107.919 Y63.212 E0.02018
G1 X108.517 Y63.632 E0.02293
G1 X108.985 Y64.049 E0.01964
G1 X109.384 Y64.484 E0.01851
G1 X109.828 Y65.095 E0.02369
G1 X110.184 Y65.740 E0.02311
G1 X110.425 Y66.328 E0.01992
G1 X110.594 Y66.909 E0.01897
G1 X110.709 Y67.541 E0.02014
G1 X110.755 Y68.204 E0.02084
G1 X110.756 Y87.150 E0.59405
G1 X112.937 Y89.368 E0.09751
G1 X113.466 Y90.294 E0.03346
G1 X113.757 Y91.465 E0.03784
G1 X113.677 Y104.618 E0.41239
G1 X113.365 Y105.514 E0.02976
G1 X112.884 Y106.277 E0.02828
G1 X110.756 Y108.427 E0.09484
G1 X110.756 Y127.660 E0.60303
G1 X111.481 Y127.146 E0.02786
G1 X112.023 Y126.830 E0.01967
G1 X112.662 Y126.537 E0.02202
G1 X113.248 Y126.333 E0.01947
G1 X113.866 Y126.178 E0.01998
