; generated by PrusaSlicer 2.4.2+win64 on 2022-06-01 at 18:07:26 UTC

; 

; external perimeters extrusion width = 0.45mm
; perimeters extrusion width = 0.45mm
; infill extrusion width = 0.45mm
; solid infill extrusion width = 0.45mm
; top infill extrusion width = 0.40mm
; support material extrusion width = 0.35mm
; first layer extrusion width = 0.42mm

; external perimeters extrusion width = 0.45mm
; perimeters extrusion width = 0.45mm
; infill extrusion width = 0.45mm
; solid infill extrusion width = 0.45mm
; top infill extrusion width = 0.40mm
; support material extrusion width = 0.35mm
; first layer extrusion width = 0.42mm

M73 P0 R118
M73 Q0 S122
M107
;TYPE:Custom
M862.3 P "MK3" ; printer model check
M862.1 P0.4 ; nozzle diameter check
M115 U3.10.0 ; tell printer latest fw version
G90 ; use absolute coordinates
M83 ; extruder relative mode
M104 S215 ; set extruder temp
M140 S60 ; set bed temp
M190 S60 ; wait for bed temp
M109 S215 ; wait for extruder temp
G28 W ; home all without mesh bed level
G80 ; mesh bed leveling
G1 Z0.2 F720
G1 Y-3 F1000 ; go outside print area
G92 E0
G1 X60 E9 F1000 ; intro line
G1 X100 E12.5 F1000 ; intro line
G92 E0
M221 S95

; Don't change E values below. Excessive value can damage the printer.

M907 E538 ; set extruder motor current
G21 ; set units to millimeters
G90 ; use absolute coordinates
M83 ; use relative distances for extrusion
M900 K0.05 ; Filament gcode LA 1.5
M900 K30 ; Filament gcode LA 1.0
M107
;LAYER_CHANGE
;Z:0.2
;HEIGHT:0.2
;BEFORE_LAYER_CHANGE
G92 E0.0
;0.2


G1 E-.8 F2100
G1 Z.4 F720
;AFTER_LAYER_CHANGE
;0.2
G1 X94.902 Y61.077 F10800
G1 Z.2 F720
G1 E.8 F2100
M204 S800
;TYPE:Skirt/Brim
;WIDTH:0.42
G1 F1200
G1 X95.012 Y60.967 E.0049
G1 X96.693 Y60.27 E.05704
G1 X141.771 Y60.27 E1.4134
G1 X142.286 Y60.327 E.01622
M73 Q0 S121
G1 X151.098 Y62.279 E.283
G1 X152.265 Y62.919 E.04172
G1 X154.081 Y64.735 E.08052
G1 X154.777 Y66.416 E.05704
G1 X154.777 Y143.584 E2.41955
G1 X154.081 Y145.265 E.05704
G1 X152.265 Y147.081 E.08052
G1 X151.098 Y147.721 E.04172
G1 X142.286 Y149.673 E.283
G1 X141.771 Y149.73 E.01622
G1 X96.693 Y149.73 E1.4134
G1 X95.012 Y149.033 E.05704
G1 X94.902 Y148.923 E.0049
G1 X94.206 Y147.242 E.05704
G1 X94.206 Y62.758 E2.64893
G1 X94.879 Y61.133 E.05516
M204 S1000
;WIPE_START
M73 P0 R117
G1 F8640
G1 X95.012 Y60.967 E-.04917
G1 X96.693 Y60.27 E-.42009
G1 X97.952 Y60.27 E-.29074
;WIPE_END
G1 E-.04 F2100
G1 Z.6 F720
G1 X102.877 Y66.399 F10800
G1 Z.2 F720
G1 E.8 F2100
M204 S800
G1 F1200
G1 X103.41 Y65.767 E.02592
G1 X104.043 Y65.361 E.02358
G1 X104.815 Y65.149 E.02511
G1 X122.075 Y65.153 E.54116
G1 X122.599 Y65.264 E.01681
G1 X123.127 Y65.504 E.01817
G1 X123.734 Y66.025 E.0251
G1 X124.139 Y66.656 E.02351
G1 X124.351 Y67.428 E.0251
G1 X124.351 Y142.518 E2.3544
G1 X124.296 Y142.904 E.01222
G1 X124.01 Y143.601 E.02362
G1 X123.477 Y144.233 E.02592
G1 X122.844 Y144.639 E.02358
G1 X122.072 Y144.851 E.0251
G1 X104.869 Y144.851 E.5394
G1 X104.483 Y144.796 E.01222
G1 X103.786 Y144.51 E.02362
G1 X103.154 Y143.977 E.02592
G1 X102.748 Y143.344 E.02358
G1 X102.536 Y142.572 E.0251
G1 X102.536 Y114.928 E.86676
G1 X102.749 Y114.153 E.0252
G1 X103.13 Y113.551 E.02235
G1 X103.682 Y113.053 E.02329
G1 X103.996 Y112.879 E.01127
G1 X104.542 Y112.694 E.01808
G1 X109.058 Y112.634 E.14159
G1 X109.065 Y97.366 E.47874
G1 X104.811 Y97.347 E.13339
G1 X104.368 Y97.264 E.01412
G1 X103.441 Y96.766 E.03298
G1 X102.91 Y96.155 E.02537
G1 X102.591 Y95.404 E.0256
G1 X102.536 Y95.018 E.01222
G1 X102.536 Y67.482 E.86339
G1 X102.591 Y67.096 E.01222
G1 X102.854 Y66.454 E.02174
M204 S1000
G1 X103.201 Y66.6 F10800
M204 S800
G1 F1200
G1 X103.677 Y66.035 E.02316
G1 X104.173 Y65.715 E.0185
G1 X104.842 Y65.526 E.02179
G1 X122.053 Y65.53 E.53965
G1 X122.497 Y65.627 E.01423
G1 X122.943 Y65.834 E.01541
G1 X123.466 Y66.291 E.02178
G1 X123.785 Y66.786 E.01847
G1 X123.974 Y67.455 E.02179
G1 X123.974 Y142.504 E2.35312
G1 X123.927 Y142.825 E.01017
G1 X123.675 Y143.427 E.02046
G1 X123.21 Y143.965 E.02231
G1 X122.714 Y144.285 E.0185
G1 X122.045 Y144.474 E.02179
G1 X104.883 Y144.474 E.53811
G1 X104.562 Y144.427 E.01017
G1 X103.96 Y144.175 E.02046
G1 X103.422 Y143.71 E.02231
G1 X103.102 Y143.214 E.0185
G1 X102.913 Y142.545 E.02179
G1 X102.913 Y114.955 E.86508
G1 X103.103 Y114.285 E.02184
G1 X103.431 Y113.779 E.01891
G1 X103.915 Y113.35 E.02026
G1 X104.138 Y113.229 E.00797
G1 X104.579 Y113.071 E.0147
G1 X108.728 Y113.026 E.13007
G1 X109.037 Y113.003 E.00972
G1 X109.435 Y112.875 E.01311
G1 X109.442 Y97.137 E.49344
G1 X109.214 Y97.044 E.00773
G1 X108.91 Y96.983 E.00972
G1 X104.83 Y96.97 E.12792
G1 X104.468 Y96.899 E.01158
G1 X103.7 Y96.489 E.02729
G1 X103.243 Y95.976 E.02154
G1 X102.96 Y95.324 E.02231
G1 X102.913 Y95.004 E.01012
G1 X102.913 Y67.496 E.8625
G1 X102.96 Y67.175 E.01016
G1 X103.178 Y66.655 E.01768
M204 S1000
G1 X103.524 Y66.803 F10800
M204 S800
G1 F1200
G1 X103.546 Y66.751 E.00176
G1 X103.941 Y66.305 E.01871
G1 X104.307 Y66.069 E.01363
G1 X104.87 Y65.903 E.01841
G1 X122.031 Y65.907 E.53807
G1 X122.391 Y65.99 E.01157
G1 X122.756 Y66.162 E.01266
G1 X123.196 Y66.554 E.01848
G1 X123.431 Y66.92 E.01362
G1 X123.597 Y67.483 E.01841
G1 X123.597 Y142.489 E2.35177
G1 X123.558 Y142.743 E.00805
G1 X123.341 Y143.249 E.01726
G1 X122.946 Y143.695 E.01871
G1 X122.58 Y143.931 E.01363
G1 X122.017 Y144.097 E.01841
G1 X104.898 Y144.097 E.53676
G1 X104.644 Y144.058 E.00805
G1 X104.138 Y143.841 E.01726
G1 X103.692 Y143.446 E.01871
G1 X103.456 Y143.08 E.01363
G1 X103.29 Y142.517 E.01841
G1 X103.29 Y114.983 E.86332
G1 X103.456 Y114.419 E.01844
G1 X103.702 Y114.043 E.01409
G1 X104.118 Y113.669 E.01753
G1 X104.28 Y113.578 E.00583
G1 X104.676 Y113.437 E.01319
G1 X108.743 Y113.403 E.12751
G1 X109.086 Y113.378 E.01078
G1 X109.305 Y113.327 E.00707
G1 X109.519 Y113.239 E.00725
G1 X109.812 Y113.022 E.01142
G1 X109.819 Y97.083 E.49976
G1 X109.755 Y96.926 E.00532
G1 X109.531 Y96.766 E.00864
G1 X109.323 Y96.681 E.00703
G1 X108.948 Y96.607 E.012
G1 X104.851 Y96.593 E.12845
G1 X104.57 Y96.536 E.009
G1 X103.959 Y96.213 E.02165
G1 X103.546 Y95.749 E.01949
G1 X103.329 Y95.243 E.01726
G1 X103.29 Y94.989 E.00805
G1 X103.29 Y67.511 E.86156
G1 X103.329 Y67.257 E.00805
G1 X103.5 Y66.858 E.01361
M204 S1000
G1 X103.844 Y67.01 F10800
M204 S800
G1 F1200
G1 X103.877 Y66.934 E.00261
G1 X104.202 Y66.577 E.01513
G1 X104.444 Y66.421 E.00902
G1 X104.899 Y66.28 E.01495
G1 X122.009 Y66.284 E.53647
G1 X122.247 Y66.339 E.00767
G1 X122.568 Y66.491 E.01111
G1 X122.923 Y66.815 E.01508
G1 X123.079 Y67.057 E.00902
G1 X123.22 Y67.512 E.01495
G1 X123.22 Y142.473 E2.35034
G1 X123.19 Y142.657 E.00584
G1 X123.01 Y143.066 E.01402
G1 X122.684 Y143.423 E.01513
G1 X122.443 Y143.579 E.00902
G1 X121.988 Y143.72 E.01495
G1 X104.914 Y143.72 E.53534
G1 X104.73 Y143.69 E.00584
G1 X104.321 Y143.51 E.01402
G1 X103.964 Y143.184 E.01513
G1 X103.808 Y142.943 E.00902
G1 X103.667 Y142.488 E.01495
G1 X103.667 Y115.012 E.86147
G1 X103.808 Y114.557 E.01495
G1 X103.974 Y114.305 E.00946
G1 X104.325 Y113.984 E.01491
G1 X104.424 Y113.927 E.0036
G1 X104.773 Y113.802 E.01162
G1 X108.758 Y113.78 E.12494
G1 X109.143 Y113.751 E.0121
G1 X109.42 Y113.687 E.00893
G1 X109.685 Y113.579 E.00898
G1 X109.909 Y113.439 E.00827
G1 X110.053 Y113.304 E.0062
G1 X110.156 Y113.146 E.00591
G1 X110.196 Y112.948 E.00633
G1 X110.196 Y97.055 E.49831
G1 X110.143 Y96.829 E.00728
G1 X110.002 Y96.639 E.00742
G1 X109.714 Y96.434 E.01107
G1 X109.433 Y96.319 E.00955
G1 X108.986 Y96.23 E.01428
G1 X104.873 Y96.216 E.12894
G1 X104.674 Y96.173 E.00638
G1 X104.213 Y95.933 E.0163
G1 X103.877 Y95.566 E.01559
G1 X103.697 Y95.157 E.01402
G1 X103.667 Y94.973 E.00584
G1 X103.667 Y67.527 E.86057
G1 X103.697 Y67.343 E.00584
G1 X103.819 Y67.065 E.00953
M204 S1000
G1 X104.161 Y67.22 F10800
M204 S800
G1 F1200
G1 X104.206 Y67.121 E.00341
G1 X104.46 Y66.853 E.01156
G1 X104.587 Y66.77 E.00476
G1 X104.931 Y66.657 E.01136
G1 X121.987 Y66.661 E.53478
G1 X122.104 Y66.688 E.00377
G1 X122.378 Y66.818 E.0095
G1 X122.647 Y67.073 E.0116
G1 X122.73 Y67.2 E.00476
G1 X122.843 Y67.544 E.01136
G1 X122.843 Y142.456 E2.3488
G1 X122.823 Y142.567 E.00352
G1 X122.681 Y142.879 E.01077
G1 X122.427 Y143.147 E.01156
G1 X122.3 Y143.23 E.00476
G1 X121.956 Y143.343 E.01136
G1 X104.931 Y143.343 E.5338
G1 X104.82 Y143.323 E.00352
G1 X104.508 Y143.181 E.01077
G1 X104.24 Y142.927 E.01156
G1 X104.157 Y142.8 E.00476
G1 X104.044 Y142.456 E.01136
G1 X104.044 Y115.044 E.85948
G1 X104.157 Y114.701 E.01134
M73 Q0 S120
G1 X104.246 Y114.566 E.00506
G1 X104.539 Y114.295 E.01251
G1 X104.87 Y114.168 E.0111
G1 X108.772 Y114.157 E.12236
G1 X109.2 Y114.125 E.01344
G1 X109.535 Y114.048 E.01079
G1 X109.858 Y113.915 E.01095
G1 X110.14 Y113.739 E.01042
G1 X110.344 Y113.548 E.00876
G1 X110.512 Y113.292 E.00961
G1 X110.573 Y112.985 E.00979
G1 X110.573 Y97.011 E.50086
G1 X110.492 Y96.666 E.01111
M73 P1 R117
G1 X110.269 Y96.367 E.01172
G1 X109.898 Y96.102 E.01429
G1 X109.542 Y95.956 E.01207
G1 X109.024 Y95.853 E.01657
G1 X104.898 Y95.839 E.12935
G1 X104.784 Y95.812 E.00368
G1 X104.462 Y95.648 E.01132
G1 X104.206 Y95.379 E.01165
G1 X104.064 Y95.067 E.01076
G1 X104.044 Y94.956 E.00352
G1 X104.044 Y67.544 E.85947
G1 X104.064 Y67.433 E.00352
M73 Q1 S120
G1 X104.136 Y67.275 E.00547
M204 S1000
G1 X104.474 Y67.435 F10800
M204 S800
G1 F1200
G1 X104.531 Y67.315 E.00415
G1 X104.712 Y67.134 E.00802
G1 X104.966 Y67.034 E.00856
G1 X121.935 Y67.034 E.53205
G1 X122.185 Y67.144 E.00856
G1 X122.366 Y67.325 E.00802
G1 X122.466 Y67.579 E.00856
G1 X122.466 Y142.435 E2.34705
G1 X122.356 Y142.685 E.00856
G1 X122.175 Y142.866 E.00802
G1 X121.921 Y142.966 E.00856
G1 X104.952 Y142.966 E.53205
G1 X104.702 Y142.856 E.00856
G1 X104.521 Y142.675 E.00802
G1 X104.421 Y142.421 E.00856
G1 X104.421 Y115.079 E.85728
G1 X104.519 Y114.828 E.00845
M73 P1 R116
G1 X104.753 Y114.611 E.01002
G1 X104.966 Y114.534 E.00709
G1 X108.786 Y114.534 E.11977
G1 X109.246 Y114.5 E.01445
G1 X109.661 Y114.404 E.01337
G1 X110.031 Y114.252 E.01253
G1 X110.371 Y114.039 E.01257
G1 X110.629 Y113.798 E.01107
G1 X110.81 Y113.538 E.00995
G1 X110.869 Y113.41 E.0044
G1 X110.941 Y113.131 E.00903
G1 X110.95 Y112.985 E.0046
G1 X110.95 Y97.015 E.50073
G1 X110.941 Y96.869 E.0046
G1 X110.869 Y96.591 E.00898
G1 X110.809 Y96.463 E.00444
G1 X110.614 Y96.184 E.01069
G1 X110.512 Y96.079 E.00457
G1 X110.205 Y95.844 E.01214
G1 X110.054 Y95.758 E.00542
G1 X109.659 Y95.597 E.01338
G1 X109.238 Y95.499 E.01355
G1 X109.038 Y95.476 E.00633
G1 X104.951 Y95.465 E.12814
G1 X104.702 Y95.356 E.00854
G1 X104.531 Y95.185 E.00757
G1 X104.421 Y94.935 E.00856
G1 X104.421 Y67.565 E.85817
G1 X104.449 Y67.489 E.00254
M204 S1000
G1 X104.798 Y67.621 F10800
M204 S800
G1 F1200
G1 X104.827 Y67.552 E.00235
G1 X104.939 Y67.44 E.00495
G1 X105.008 Y67.411 E.00235
G1 X121.879 Y67.411 E.52897
G1 X121.948 Y67.44 E.00235
G1 X122.06 Y67.552 E.00495
G1 X122.089 Y67.621 E.00235
G1 X122.089 Y142.379 E2.34398
G1 X122.06 Y142.448 E.00235
G1 X121.948 Y142.56 E.00495
G1 X121.879 Y142.589 E.00235
G1 X105.008 Y142.589 E.52897
G1 X104.939 Y142.56 E.00235
G1 X104.827 Y142.448 E.00495
G1 X104.798 Y142.379 E.00235
G1 X104.798 Y115.121 E.85465
G1 X104.827 Y115.052 E.00235
G1 X104.939 Y114.94 E.00495
G1 X105.008 Y114.911 E.00235
G1 X108.8 Y114.911 E.1189
G1 X109.295 Y114.874 E.01557
G1 X109.783 Y114.761 E.01571
G1 X110.204 Y114.589 E.01425
G1 X110.602 Y114.34 E.01473
G1 X110.915 Y114.046 E.01347
G1 X111.138 Y113.726 E.01223
G1 X111.225 Y113.538 E.0065
G1 X111.315 Y113.191 E.01122
G1 X111.328 Y112.997 E.0061
G1 X111.328 Y97.003 E.50149
G1 X111.315 Y96.809 E.0061
G1 X111.226 Y96.463 E.01121
G1 X111.137 Y96.273 E.00656
G1 X110.905 Y95.943 E.01265
G1 X110.763 Y95.797 E.00639
G1 X110.414 Y95.529 E.01382
G1 X110.22 Y95.418 E.007
G1 X109.774 Y95.236 E.01509
G1 X109.303 Y95.127 E.01517
G1 X109.06 Y95.099 E.00767
G1 X105.008 Y95.088 E.12705
G1 X104.939 Y95.06 E.00234
G1 X104.827 Y94.948 E.00495
G1 X104.798 Y94.879 E.00235
G1 X104.798 Y67.681 E.85277
M204 S1000
;WIPE_START
G1 F8640
G1 X104.827 Y67.552 E-.03058
G1 X104.939 Y67.44 E-.03645
G1 X105.008 Y67.411 E-.01732
G1 X107.934 Y67.411 E-.67565
;WIPE_END
G1 E-.04 F2100
G1 Z.6 F720
G1 X130.036 Y67.681 F10800
G1 Z.2 F720
G1 E.8 F2100
M204 S800
G1 F1200
G1 X130.036 Y67.482 E.00625
G1 X130.09 Y67.096 E.01222
G1 X130.376 Y66.399 E.02362
G1 X130.91 Y65.767 E.02592
G1 X131.542 Y65.361 E.02358
G1 X132.315 Y65.149 E.02511
G1 X149.574 Y65.153 E.54116
G1 X150.099 Y65.264 E.01681
G1 X150.626 Y65.504 E.01817
G1 X151.234 Y66.025 E.0251
G1 X151.639 Y66.656 E.02351
G1 X151.851 Y67.428 E.0251
G1 X151.851 Y142.518 E2.3544
G1 X151.796 Y142.904 E.01222
G1 X151.51 Y143.601 E.02362
G1 X150.976 Y144.233 E.02592
G1 X150.344 Y144.639 E.02358
G1 X149.572 Y144.851 E.0251
G1 X132.368 Y144.851 E.5394
G1 X131.983 Y144.796 E.01222
G1 X131.285 Y144.51 E.02362
G1 X130.654 Y143.977 E.02592
G1 X130.247 Y143.344 E.02358
G1 X130.036 Y142.572 E.0251
G1 X130.036 Y114.928 E.86676
G1 X130.248 Y114.153 E.0252
G1 X130.63 Y113.551 E.02235
G1 X131.182 Y113.053 E.02329
G1 X131.496 Y112.879 E.01127
G1 X132.042 Y112.694 E.01808
G1 X136.558 Y112.634 E.14159
G1 X136.565 Y97.366 E.47874
G1 X132.31 Y97.347 E.13339
G1 X131.868 Y97.264 E.01412
G1 X130.941 Y96.766 E.03298
G1 X130.41 Y96.155 E.02537
G1 X130.09 Y95.404 E.0256
G1 X130.036 Y95.018 E.01222
G1 X130.036 Y67.741 E.85526
M204 S1000
G1 X130.413 Y67.741 F10800
M204 S800
G1 F1200
G1 X130.413 Y67.496 E.00769
G1 X130.46 Y67.175 E.01016
G1 X130.712 Y66.573 E.02046
G1 X131.177 Y66.035 E.02231
G1 X131.673 Y65.715 E.0185
G1 X132.342 Y65.526 E.02179
G1 X149.553 Y65.53 E.53965
G1 X149.996 Y65.627 E.01423
G1 X150.442 Y65.834 E.01541
G1 X150.966 Y66.291 E.02178
G1 X151.284 Y66.786 E.01847
G1 X151.474 Y67.455 E.02179
G1 X151.474 Y142.504 E2.35312
G1 X151.426 Y142.825 E.01017
G1 X151.175 Y143.427 E.02046
G1 X150.71 Y143.965 E.02231
G1 X150.213 Y144.285 E.0185
G1 X149.545 Y144.474 E.02179
G1 X132.383 Y144.474 E.53811
G1 X132.062 Y144.427 E.01017
G1 X131.46 Y144.175 E.02046
G1 X130.921 Y143.71 E.02231
G1 X130.602 Y143.214 E.0185
G1 X130.413 Y142.545 E.02179
G1 X130.413 Y114.955 E.86508
G1 X130.603 Y114.285 E.02184
G1 X130.931 Y113.779 E.01891
G1 X131.415 Y113.35 E.02026
G1 X131.638 Y113.229 E.00797
G1 X132.079 Y113.071 E.0147
G1 X136.227 Y113.026 E.13007
G1 X136.537 Y113.003 E.00972
G1 X136.935 Y112.875 E.01311
G1 X136.942 Y97.137 E.49344
G1 X136.714 Y97.044 E.00773
G1 X136.41 Y96.983 E.00972
G1 X132.33 Y96.97 E.12792
G1 X131.968 Y96.899 E.01158
G1 X131.2 Y96.489 E.02729
G1 X130.743 Y95.976 E.02154
G1 X130.46 Y95.324 E.02231
G1 X130.413 Y95.004 E.01012
G1 X130.413 Y67.801 E.85293
M204 S1000
G1 X130.79 Y67.801 F10800
M204 S800
G1 F1200
G1 X130.79 Y67.511 E.0091
G1 X130.829 Y67.257 E.00805
G1 X131.045 Y66.751 E.01726
G1 X131.441 Y66.305 E.01871
G1 X131.806 Y66.069 E.01363
G1 X132.37 Y65.903 E.01841
G1 X149.531 Y65.907 E.53807
G1 X149.89 Y65.99 E.01157
G1 X150.255 Y66.162 E.01266
G1 X150.695 Y66.554 E.01848
G1 X150.931 Y66.92 E.01362
G1 X151.097 Y67.483 E.01841
G1 X151.097 Y142.489 E2.35177
G1 X151.058 Y142.743 E.00805
G1 X150.841 Y143.249 E.01726
G1 X150.445 Y143.695 E.01871
G1 X150.08 Y143.931 E.01363
G1 X149.517 Y144.097 E.01841
G1 X132.398 Y144.097 E.53676
G1 X132.144 Y144.058 E.00805
G1 X131.638 Y143.841 E.01726
G1 X131.191 Y143.446 E.01871
G1 X130.956 Y143.08 E.01363
G1 X130.79 Y142.517 E.01841
G1 X130.79 Y114.983 E.86332
G1 X130.956 Y114.419 E.01844
G1 X131.202 Y114.043 E.01409
G1 X131.617 Y113.669 E.01753
G1 X131.78 Y113.578 E.00583
G1 X132.176 Y113.437 E.01319
G1 X136.243 Y113.403 E.12751
G1 X136.585 Y113.378 E.01078
G1 X136.805 Y113.327 E.00707
G1 X137.019 Y113.239 E.00725
G1 X137.312 Y113.022 E.01142
G1 X137.319 Y97.083 E.49976
G1 X137.255 Y96.926 E.00532
G1 X137.031 Y96.766 E.00864
G1 X136.823 Y96.681 E.00703
G1 X136.448 Y96.607 E.012
G1 X132.351 Y96.593 E.12845
G1 X132.069 Y96.536 E.009
G1 X131.459 Y96.213 E.02165
G1 X131.045 Y95.749 E.01949
G1 X130.829 Y95.243 E.01726
G1 X130.79 Y94.989 E.00805
G1 X130.79 Y67.861 E.85058
M204 S1000
G1 X131.167 Y67.861 F10800
M204 S800
G1 F1200
G1 X131.167 Y67.527 E.01048
G1 X131.197 Y67.343 E.00584
G1 X131.377 Y66.934 E.01402
