; generated by PrusaSlicer 2.4.2+win64 on 2022-06-01 at 17:56:09 UTC

; 

; external perimeters extrusion width = 0.45mm
; perimeters extrusion width = 0.45mm
; infill extrusion width = 0.45mm
; solid infill extrusion width = 0.45mm
; top infill extrusion width = 0.40mm
; support material extrusion width = 0.35mm
; first layer extrusion width = 0.42mm

; external perimeters extrusion width = 0.45mm
; perimeters extrusion width = 0.45mm
; infill extrusion width = 0.45mm
; solid infill extrusion width = 0.45mm
; top infill extrusion width = 0.40mm
; support material extrusion width = 0.35mm
; first layer extrusion width = 0.42mm

; external perimeters extrusion width = 0.45mm
; perimeters extrusion width = 0.45mm
; infill extrusion width = 0.45mm
; solid infill extrusion width = 0.45mm
; top infill extrusion width = 0.40mm
; support material extrusion width = 0.35mm
; first layer extrusion width = 0.42mm

M73 P0 R18
M73 Q0 S18
M107
;TYPE:Custom
M862.3 P "MK3" ; printer model check
M862.1 P0.4 ; nozzle diameter check
M115 U3.10.0 ; tell printer latest fw version
G90 ; use absolute coordinates
M83 ; extruder relative mode
M104 S215 ; set extruder temp
M140 S60 ; set bed temp
M190 S60 ; wait for bed temp
M109 S215 ; wait for extruder temp
G28 W ; home all without mesh bed level
G80 ; mesh bed leveling
G1 Z0.2 F720
G1 Y-3 F1000 ; go outside print area
G92 E0
G1 X60 E9 F1000 ; intro line
G1 X100 E12.5 F1000 ; intro line
G92 E0
M221 S95

; Don't change E values below. Excessive value can damage the printer.

M907 E538 ; set extruder motor current
G21 ; set units to millimeters
G90 ; use absolute coordinates
M83 ; use relative distances for extrusion
M900 K0.05 ; Filament gcode LA 1.5
M900 K30 ; Filament gcode LA 1.0
M107
;LAYER_CHANGE
;Z:0.2
;HEIGHT:0.2
;BEFORE_LAYER_CHANGE
G92 E0.0
;0.2


G1 E-.8 F2100
G1 Z.4 F720
;AFTER_LAYER_CHANGE
;0.2
G1 X106.367 Y82.777 F10800
G1 Z.2 F720
G1 E.8 F2100
M204 S800
;TYPE:Skirt/Brim
;WIDTH:0.42
G1 F1200
G1 X107.302 Y81.597 E.04722
G1 X108.4 Y80.566 E.04722
G1 X109.637 Y79.706 E.04722
G1 X110.985 Y79.036 E.04722
G1 X112.474 Y78.558 E.04904
G1 X114.328 Y78.289 E.05873
G1 X135.263 Y77.424 E.65694
G1 X141.216 Y77.423 E.18666
M73 P0 R17
G1 X142.897 Y78.119 E.05704
G1 X144.713 Y79.935 E.08052
G1 X145.399 Y81.399 E.0507
G1 X146.537 Y93.943 E.3949
G1 X146.526 Y107.004 E.40953
G1 X144.408 Y128.616 E.68087
G1 X143.723 Y130.065 E.05025
M73 P1 R17
M73 Q1 S18
G1 X141.907 Y131.881 E.08052
G1 X140.227 Y132.577 E.05704
G1 X134.273 Y132.576 E.18666
G1 X133.248 Y132.478 E.03229
G1 X131.86 Y132.057 E.04548
G1 X131.132 Y131.682 E.02569
G1 X130.429 Y131.193 E.02685
G1 X123.367 Y124.667 E.30148
M73 Q1 S17
G1 X106.776 Y102.165 E.8766
G1 X106.339 Y101.104 E.03597
G1 X104.687 Y89.952 E.35347
G1 X104.592 Y88.449 E.04722
G1 X104.727 Y86.891 E.04904
G1 X105.06 Y85.482 E.0454
G1 X105.614 Y84.082 E.04722
G1 X106.337 Y82.829 E.04534
M204 S1000
;WIPE_START
G1 F8640
G1 X107.302 Y81.597 E-.36144
G1 X108.4 Y80.566 E-.34773
G1 X108.581 Y80.44 E-.05083
;WIPE_END
G1 E-.04 F2100
G1 Z.6 F720
G1 X125.852 Y88.572 F10800
G1 Z.2 F720
G1 E.8 F2100
M204 S800
G1 F1200
G1 X126.015 Y88.114 E.01523
G1 X126.373 Y87.493 E.0225
G1 X126.833 Y86.98 E.02158
G1 X127.557 Y86.481 E.02758
G1 X128.119 Y86.255 E.01899
G1 X128.741 Y86.131 E.01987
G1 X129.515 Y86.142 E.02428
G1 X130.23 Y86.317 E.02308
G1 X130.894 Y86.642 E.02318
G1 X131.449 Y87.074 E.02205
G1 X132.001 Y87.431 E.02061
G1 X133.157 Y86.228 E.05233
G1 X132.766 Y85.83 E.01749
G1 X132.366 Y85.218 E.02295
G1 X132.112 Y84.554 E.02227
G1 X132.002 Y83.719 E.02642
G1 X132.106 Y82.87 E.02682
G1 X132.47 Y81.99 E.02987
G1 X133.028 Y81.286 E.02815
G1 X133.617 Y80.833 E.02329
G1 X134.069 Y80.604 E.0159
G1 X134.581 Y80.439 E.01688
G1 X135.146 Y80.358 E.0179
G1 X140.25 Y80.358 E.16004
G1 X140.736 Y80.466 E.01561
G1 X141.259 Y80.704 E.018
G1 X141.866 Y81.225 E.02509
G1 X142.271 Y81.856 E.02351
G1 X142.483 Y82.628 E.0251
G1 X142.483 Y97.672 E.47171
G1 X142.268 Y98.451 E.02531
G1 X141.979 Y98.935 E.0177
G1 X141.391 Y99.512 E.02582
G1 X140.965 Y99.743 E.01518
G1 X140.255 Y99.944 E.02316
G1 X133.072 Y99.951 E.2252
G1 X132.321 Y99.772 E.02422
G1 X131.539 Y99.287 E.02884
G1 X128.426 Y96.054 E.14072
G1 X128.202 Y95.842 E.00966
G1 X127.455 Y95.25 E.0299
G1 X126.975 Y94.811 E.0204
G1 X126.041 Y93.706 E.04536
G1 X125.878 Y93.445 E.00966
G1 X125.62 Y92.583 E.02822
G1 X125.588 Y91.274 E.04105
G1 X125.702 Y90.21 E.03355
G1 X125.76 Y89.026 E.03717
G1 X125.84 Y88.631 E.01264
M204 S1000
G1 X126.21 Y88.706 F10800
M204 S800
G1 F1200
G1 X126.364 Y88.258 E.01485
G1 X126.669 Y87.727 E.01918
G1 X127.068 Y87.276 E.01889
G1 X127.719 Y86.823 E.02487
G1 X128.243 Y86.611 E.01772
G1 X128.793 Y86.505 E.01757
G1 X129.448 Y86.514 E.02055
G1 X130.083 Y86.665 E.02047
G1 X130.709 Y86.972 E.02186
G1 X131.229 Y87.381 E.02073
G1 X132.057 Y87.916 E.03092
G1 X133.687 Y86.221 E.07375
G1 X133.07 Y85.607 E.02729
G1 X132.693 Y85.029 E.02163
G1 X132.472 Y84.442 E.01966
G1 X132.379 Y83.741 E.02218
G1 X132.477 Y82.941 E.02526
G1 X132.782 Y82.204 E.02503
G1 X133.309 Y81.539 E.02658
G1 X133.802 Y81.162 E.01947
G1 X134.225 Y80.948 E.01488
G1 X134.68 Y80.803 E.01494
G1 X135.185 Y80.733 E.016
G1 X140.228 Y80.735 E.15812
G1 X140.631 Y80.828 E.01297
G1 X141.074 Y81.034 E.01533
G1 X141.598 Y81.491 E.02178
G1 X141.916 Y81.986 E.01847
G1 X142.106 Y82.655 E.02179
G1 X142.106 Y97.645 E.47002
G1 X141.913 Y98.323 E.02209
G1 X141.696 Y98.685 E.01324
G1 X141.183 Y99.196 E.02269
G1 X140.841 Y99.386 E.01229
G1 X140.177 Y99.574 E.02163
G1 X133.096 Y99.574 E.22203
G1 X132.441 Y99.413 E.02114
M73 Q2 S17
G1 X131.795 Y99.009 E.02389
G1 X128.692 Y95.786 E.14028
G1 X128.449 Y95.557 E.01047
M73 P2 R17
G1 X127.704 Y94.968 E.02978
G1 X127.239 Y94.541 E.0198
G1 X126.339 Y93.474 E.04377
G1 X126.212 Y93.268 E.00757
G1 X125.996 Y92.548 E.02357
G1 X125.966 Y91.277 E.03986
G1 X126.078 Y90.239 E.03274
G1 X126.132 Y89.086 E.03618
G1 X126.198 Y88.764 E.0103
M204 S1000
G1 X126.566 Y88.837 F10800
M204 S800
G1 F1200
G1 X126.713 Y88.401 E.01445
G1 X126.966 Y87.96 E.01592
G1 X127.305 Y87.57 E.0162
G1 X127.882 Y87.163 E.02216
G1 X128.336 Y86.977 E.01537
G1 X128.811 Y86.882 E.0152
G1 X129.385 Y86.886 E.01799
G1 X129.939 Y87.014 E.01785
G1 X130.493 Y87.281 E.01927
G1 X131.009 Y87.688 E.02062
G1 X131.75 Y88.167 E.02766
G1 X132.069 Y88.448 E.01332
G1 X134.218 Y86.212 E.09722
G1 X133.373 Y85.381 E.03716
G1 X133.037 Y84.874 E.0191
G1 X132.842 Y84.367 E.01702
G1 X132.756 Y83.758 E.01928
G1 X132.835 Y83.06 E.02201
G1 X133.12 Y82.374 E.02331
G1 X133.587 Y81.794 E.02333
G1 X133.987 Y81.491 E.01574
G1 X134.381 Y81.292 E.01385
G1 X134.776 Y81.168 E.01296
G1 X135.222 Y81.108 E.01411
G1 X140.204 Y81.112 E.15621
G1 X140.521 Y81.189 E.01024
G1 X140.887 Y81.362 E.0127
G1 X141.327 Y81.754 E.01848
G1 X141.563 Y82.12 E.01362
G1 X141.729 Y82.683 E.01841
G1 X141.729 Y97.617 E.46826
G1 X141.559 Y98.192 E.0188
G1 X141.412 Y98.437 E.00896
G1 X140.972 Y98.882 E.01961
G1 X140.711 Y99.031 E.00942
G1 X140.149 Y99.197 E.01838
G1 X133.12 Y99.197 E.22039
G1 X132.564 Y99.055 E.01799
G1 X132.051 Y98.732 E.01901
G1 X128.957 Y95.518 E.13985
G1 X128.696 Y95.271 E.01127
G1 X127.954 Y94.685 E.02966
G1 X127.502 Y94.271 E.0192
G1 X126.637 Y93.243 E.04214
G1 X126.547 Y93.094 E.00546
G1 X126.372 Y92.514 E.019
G1 X126.343 Y91.281 E.03867
G1 X126.455 Y90.268 E.03195
G1 X126.505 Y89.145 E.03525
G1 X126.554 Y88.896 E.00795
M204 S1000
G1 X126.924 Y88.97 F10800
M204 S800
G1 F1200
G1 X126.945 Y88.863 E.00342
G1 X127.061 Y88.546 E.01059
G1 X127.264 Y88.191 E.01282
G1 X127.544 Y87.863 E.0135
G1 X128.048 Y87.502 E.01943
G1 X128.431 Y87.342 E.01302
G1 X128.832 Y87.259 E.01283
G1 X129.324 Y87.259 E.01543
G1 X129.798 Y87.365 E.01523
G1 X130.276 Y87.591 E.0166
G1 X130.79 Y87.995 E.02049
G1 X131.532 Y88.475 E.02772
G1 X132.088 Y88.972 E.02337
G1 X134.748 Y86.205 E.12036
G1 X133.653 Y85.127 E.04819
G1 X133.365 Y84.686 E.01652
G1 X133.203 Y84.256 E.01441
G1 X133.133 Y83.733 E.01652
G1 X133.206 Y83.134 E.01893
G1 X133.456 Y82.548 E.01998
G1 X133.863 Y82.052 E.02011
G1 X134.174 Y81.819 E.01217
G1 X134.51 Y81.646 E.01186
G1 X134.873 Y81.533 E.01192
G1 X135.234 Y81.485 E.01143
G1 X140.141 Y81.484 E.15384
G1 X140.379 Y81.539 E.00767
G1 X140.7 Y81.691 E.01111
G1 X141.054 Y82.015 E.01508
G1 X141.211 Y82.257 E.00902
G1 X141.352 Y82.712 E.01495
G1 X141.352 Y97.588 E.4664
G1 X141.206 Y98.057 E.01542
G1 X141.125 Y98.191 E.00489
G1 X140.757 Y98.572 E.01663
G1 X140.576 Y98.679 E.00656
G1 X140.119 Y98.82 E.015
G1 X133.145 Y98.82 E.21867
G1 X132.69 Y98.699 E.01477
G1 X132.308 Y98.455 E.01423
G1 X129.223 Y95.251 E.13944
G1 X128.943 Y94.986 E.01208
G1 X128.203 Y94.402 E.02954
G1 X127.766 Y94.002 E.01859
G1 X126.937 Y93.014 E.04045
G1 X126.883 Y92.923 E.0033
G1 X126.749 Y92.479 E.01454
G1 X126.72 Y91.285 E.03745
G1 X126.831 Y90.297 E.03116
G1 X126.878 Y89.204 E.03431
G1 X126.913 Y89.028 E.00562
M204 S1000
G1 X127.282 Y89.099 F10800
M204 S800
G1 F1200
G1 X127.305 Y88.977 E.00389
G1 X127.41 Y88.691 E.00955
G1 X127.581 Y88.396 E.0107
G1 X127.813 Y88.128 E.01112
G1 X128.246 Y87.824 E.01658
G1 X128.555 Y87.699 E.01046
G1 X128.886 Y87.633 E.01058
G1 X129.301 Y87.635 E.01302
G1 X129.656 Y87.714 E.01139
G1 X130.095 Y87.922 E.01523
G1 X130.569 Y88.301 E.01903
G1 X131.315 Y88.784 E.02785
G1 X132.106 Y89.498 E.03342
G1 X135.28 Y86.196 E.14359
G1 X133.957 Y84.904 E.05799
G1 X133.692 Y84.497 E.01521
G1 X133.573 Y84.181 E.0106
G1 X133.511 Y83.749 E.01368
G1 X133.566 Y83.251 E.0157
G1 X133.767 Y82.762 E.01658
G1 X134.11 Y82.338 E.01711
G1 X134.363 Y82.145 E.00996
G1 X134.642 Y82 E.00985
G1 X134.94 Y81.904 E.00981
G1 X135.271 Y81.861 E.01049
G1 X140.119 Y81.861 E.15199
G1 X140.236 Y81.888 E.00377
G1 X140.51 Y82.018 E.0095
G1 X140.778 Y82.273 E.0116
G1 X140.861 Y82.4 E.00476
G1 X140.975 Y82.744 E.01136
G1 X140.975 Y97.556 E.46441
G1 X140.837 Y97.947 E.01299
G1 X140.535 Y98.266 E.0138
G1 X140.434 Y98.329 E.00372
G1 X140.088 Y98.443 E.01143
G1 X133.172 Y98.443 E.21683
G1 X132.821 Y98.344 E.01144
G1 X132.565 Y98.178 E.00958
G1 X129.489 Y94.983 E.13906
G1 X129.19 Y94.7 E.0129
G1 X128.453 Y94.119 E.02942
G1 X128.03 Y93.732 E.01797
G1 X127.239 Y92.787 E.03866
G1 X127.125 Y92.443 E.01134
G1 X127.097 Y91.289 E.03621
G1 X127.207 Y90.326 E.03037
G1 X127.251 Y89.261 E.03345
G1 X127.27 Y89.158 E.00327
M204 S1000
G1 X127.641 Y89.229 F10800
M204 S800
G1 F1200
G1 X127.672 Y89.065 E.00525
G1 X127.756 Y88.84 E.00751
G1 X127.896 Y88.605 E.00859
G1 X128.079 Y88.396 E.00872
G1 X128.439 Y88.149 E.01369
G1 X128.674 Y88.057 E.00789
G1 X128.938 Y88.006 E.00844
G1 X129.243 Y88.008 E.00956
G1 X129.519 Y88.066 E.00884
G1 X129.878 Y88.232 E.01239
G1 X130.349 Y88.608 E.01891
G1 X131.07 Y89.071 E.02687
G1 X131.786 Y89.734 E.0306
G1 X131.916 Y89.781 E.00431
G1 X132.292 Y89.834 E.01191
G1 X132.687 Y89.451 E.01725
G1 X135.432 Y86.596 E.12418
G1 X135.582 Y86.365 E.00864
G1 X135.593 Y86.121 E.00766
G1 X135.529 Y85.939 E.00605
G1 X135.412 Y85.791 E.00591
G1 X134.261 Y84.679 E.05017
G1 X134.02 Y84.311 E.0138
G1 X133.934 Y84.071 E.00798
G1 X133.888 Y83.761 E.00985
G1 X133.926 Y83.363 E.01254
G1 X134.081 Y82.973 E.01315
G1 X134.36 Y82.621 E.01408
G1 X134.553 Y82.472 E.00766
G1 X134.8 Y82.343 E.00875
G1 X135.034 Y82.27 E.00767
G1 X135.305 Y82.236 E.00857
G1 X140.067 Y82.234 E.1493
G1 X140.317 Y82.344 E.00856
M73 Q3 S17
G1 X140.516 Y82.552 E.00902
G1 X140.597 Y82.779 E.00757
G1 X140.597 Y97.521 E.46221
G1 X140.521 Y97.734 E.00709
M73 P3 R17
G1 X140.304 Y97.968 E.01002
G1 X140.053 Y98.066 E.00845
G1 X133.202 Y98.066 E.21481
G1 X132.959 Y97.993 E.00796
G1 X132.823 Y97.902 E.00511
G1 X129.754 Y94.715 E.13873
G1 X129.437 Y94.414 E.01371
G1 X128.692 Y93.828 E.02973
G1 X128.295 Y93.463 E.01691
G1 X127.562 Y92.586 E.03582
G1 X127.501 Y92.404 E.00602
G1 X127.475 Y91.293 E.03484
G1 X127.583 Y90.356 E.0296
G1 X127.63 Y89.288 E.03351
M204 S1000
G1 X128 Y89.355 F10800
M204 S800
G1 F1200
G1 X128.032 Y89.18 E.00556
G1 X128.103 Y88.99 E.00636
G1 X128.208 Y88.817 E.00636
G1 X128.343 Y88.667 E.00632
G1 X128.628 Y88.476 E.01076
G1 X128.787 Y88.417 E.0053
G1 X128.987 Y88.381 E.00641
G1 X129.19 Y88.382 E.00636
G1 X129.383 Y88.419 E.00616
G1 X129.697 Y88.564 E.01085
G1 X130.127 Y88.914 E.01739
G1 X130.823 Y89.357 E.02585
G1 X131.448 Y89.95 E.02701
G1 X131.619 Y90.074 E.00663
G1 X131.812 Y90.145 E.00647
G1 X132.24 Y90.223 E.01362
G1 X132.479 Y90.148 E.00788
G1 X132.617 Y90.052 E.00526
G1 X132.957 Y89.715 E.01501
G1 X135.719 Y86.842 E.12496
G1 X135.875 Y86.626 E.00836
G1 X135.938 Y86.475 E.00513
G1 X135.972 Y86.315 E.00513
G1 X135.967 Y86.046 E.00844
G1 X135.863 Y85.754 E.00969
G1 X135.692 Y85.538 E.00865
G1 X134.54 Y84.424 E.05025
G1 X134.352 Y84.13 E.01095
G1 X134.297 Y83.967 E.00539
G1 X134.266 Y83.767 E.00635
G1 X134.289 Y83.467 E.00941
G1 X134.398 Y83.179 E.00966
G1 X134.613 Y82.901 E.01101
G1 X134.748 Y82.795 E.00538
G1 X134.931 Y82.697 E.00651
G1 X135.128 Y82.636 E.00647
G1 X135.335 Y82.612 E.00655
G1 X140.011 Y82.611 E.14659
G1 X140.08 Y82.64 E.00235
G1 X140.192 Y82.752 E.00495
G1 X140.22 Y82.821 E.00235
G1 X140.22 Y97.479 E.45959
G1 X140.192 Y97.548 E.00235
G1 X140.08 Y97.66 E.00495
G1 X140.011 Y97.689 E.00235
G1 X133.235 Y97.689 E.21244
G1 X133.108 Y97.646 E.00423
G1 X130.02 Y94.447 E.13939
G1 X129.684 Y94.129 E.01452
G1 X128.931 Y93.536 E.03004
G1 X128.558 Y93.193 E.01589
G1 X127.9 Y92.418 E.03187
G1 X127.877 Y92.358 E.002
G1 X127.851 Y91.323 E.03246
G1 X127.96 Y90.384 E.02964
G1 X127.996 Y89.414 E.03042
M204 S1000
;WIPE_START
G1 F8640
G1 X128.032 Y89.18 E-.05474
G1 X128.103 Y88.99 E-.04686
G1 X128.208 Y88.817 E-.04684
G1 X128.343 Y88.667 E-.04655
G1 X128.628 Y88.476 E-.07924
G1 X128.787 Y88.417 E-.03905
G1 X128.987 Y88.381 E-.04717
G1 X129.19 Y88.382 E-.04685
G1 X129.383 Y88.419 E-.04536
G1 X129.697 Y88.564 E-.07988
G1 X130.127 Y88.914 E-.12804
G1 X130.49 Y89.145 E-.09941
;WIPE_END
G1 E-.04 F2100
G1 Z.6 F720
G1 X121.095 Y88.413 F10800
G1 Z.2 F720
G1 E.8 F2100
M204 S800
G1 F1200
G1 X121.071 Y88.578 E.00523
G1 X120.585 Y89.575 E.03477
G1 X120.255 Y89.916 E.01489
G1 X119.852 Y90.205 E.01555
G1 X119.291 Y90.437 E.01904
G1 X118.354 Y90.615 E.0299
G1 X117.75 Y90.81 E.0199
G1 X117.408 Y90.958 E.01167
G1 X117.078 Y91.133 E.01173
G1 X116.799 Y91.326 E.01064
G1 X116.678 Y91.504 E.00674
G1 X116.354 Y91.888 E.01573
G1 X115.846 Y92.411 E.02287
G1 X115.618 Y92.591 E.00911
G1 X115.501 Y92.885 E.00995
G1 X115.058 Y93.645 E.02759
G1 X114.794 Y94.442 E.02632
G1 X114.256 Y95.197 E.02906
G1 X113.715 Y95.61 E.02135
G1 X113.268 Y95.819 E.01546
G1 X112.549 Y95.949 E.02289
G1 X111.955 Y95.912 E.01867
G1 X111.102 Y95.581 E.02869
G1 X110.318 Y94.924 E.03206
G1 X109.796 Y94.293 E.02568
G1 X109.449 Y93.627 E.02355
G1 X108.684 Y92.532 E.04188
G1 X108.329 Y91.91 E.02245
G1 X108.047 Y91.29 E.02138
G1 X107.72 Y90.265 E.03371
G1 X107.544 Y89.172 E.03473
G1 X107.529 Y88.13 E.03267
G1 X107.623 Y87.317 E.02564
G1 X107.825 Y86.449 E.02795
G1 X108.074 Y85.745 E.02341
G1 X108.392 Y85.074 E.0233
G1 X108.95 Y84.193 E.03268
G1 X109.676 Y83.349 E.03491
G1 X110.546 Y82.606 E.03589
G1 X111.49 Y82.024 E.03475
G1 X112.506 Y81.591 E.03464
G1 X113.54 Y81.322 E.03349
G1 X114.4 Y81.217 E.02717
G1 X115.254 Y81.216 E.02677
G1 X115.813 Y81.294 E.01771
G1 X116.358 Y81.435 E.01765
G1 X117.135 Y81.763 E.02643
G1 X117.609 Y82.05 E.01739
G1 X118.033 Y82.375 E.01674
G1 X118.634 Y82.995 E.02709
G1 X119.081 Y83.646 E.02475
G1 X120.935 Y86.98 E.1196
G1 X121.125 Y87.677 E.02265
G1 X121.137 Y88.122 E.01396
G1 X121.104 Y88.354 E.00735
M204 S1000
G1 X120.732 Y88.298 F10800
M204 S800
G1 F1200
G1 X120.703 Y88.493 E.00619
G1 X120.291 Y89.336 E.02942
G1 X120.021 Y89.621 E.01232
G1 X119.65 Y89.886 E.01428
G1 X119.202 Y90.07 E.0152
G1 X118.261 Y90.249 E.03004
G1 X117.617 Y90.457 E.02121
G1 X117.245 Y90.618 E.01271
G1 X116.882 Y90.811 E.01289
G1 X116.525 Y91.058 E.01361
G1 X116.383 Y91.27 E.00801
G1 X116.079 Y91.63 E.01476
G1 X115.585 Y92.138 E.02223
G1 X115.304 Y92.357 E.01118
G1 X115.168 Y92.709 E.01184
G1 X114.687 Y93.533 E.02992
G1 X114.67 Y93.649 E.00368
G1 X114.469 Y94.249 E.01982
G1 X114.003 Y94.915 E.0255
G1 X113.503 Y95.297 E.01972
G1 X113.135 Y95.465 E.0127
