; generated by PrusaSlicer 2.4.2+win64 on 2022-06-01 at 17:59:59 UTC

; 

; external perimeters extrusion width = 0.45mm
; perimeters extrusion width = 0.45mm
; infill extrusion width = 0.45mm
; solid infill extrusion width = 0.45mm
; top infill extrusion width = 0.40mm
; support material extrusion width = 0.35mm
; first layer extrusion width = 0.42mm

; external perimeters extrusion width = 0.45mm
; perimeters extrusion width = 0.45mm
; infill extrusion width = 0.45mm
; solid infill extrusion width = 0.45mm
; top infill extrusion width = 0.40mm
; support material extrusion width = 0.35mm
; first layer extrusion width = 0.42mm

M73 P0 R70
M73 Q0 S71
M107
;TYPE:Custom
M862.3 P "MK3S" ; printer model check
M862.1 P0.4 ; nozzle diameter check
M115 U3.10.0 ; tell printer latest fw version
G90 ; use absolute coordinates
M83 ; extruder relative mode
M104 S215 ; set extruder temp
M140 S60 ; set bed temp
M190 S60 ; wait for bed temp
M109 S215 ; wait for extruder temp
G28 W ; home all without mesh bed level
G80 ; mesh bed leveling
G1 Z0.2 F720
G1 Y-3 F1000 ; go outside print area
G92 E0
G1 X60 E9 F1000 ; intro line
G1 X100 E12.5 F1000 ; intro line
G92 E0
M221 S95

; Don't change E values below. Excessive value can damage the printer.

M907 E538 ; set extruder motor current
G21 ; set units to millimeters
G90 ; use absolute coordinates
M83 ; use relative distances for extrusion
M900 K0.05 ; Filament gcode LA 1.5
M900 K30 ; Filament gcode LA 1.0
M107
;LAYER_CHANGE
;Z:0.2
;HEIGHT:0.2
;BEFORE_LAYER_CHANGE
G92 E0.0
;0.2


G1 E-.8 F2100
G1 Z.4 F720
;AFTER_LAYER_CHANGE
;0.2
G1 X94.254 Y69.172 F10800
G1 Z.2 F720
G1 E.8 F2100
M204 S800
;TYPE:Skirt/Brim
;WIDTH:0.42
G1 F1200
G1 X95.863 Y68.477 E.05494
G1 X130.466 Y67.443 E1.08545
G1 X152.359 Y69.871 E.69064
G1 X154.636 Y70.477 E.07388
G1 X155.381 Y70.792 E.02538
G1 X156.234 Y71.309 E.03126
G1 X157 Y71.961 E.03153
G1 X157.505 Y72.53 E.02387
G1 X158.062 Y73.373 E.03168
G1 X158.409 Y74.116 E.0257
G1 X158.786 Y75.561 E.04683
G1 X161.817 Y96.593 E.66625
G1 X161.841 Y109.999 E.42036
G1 X159.33 Y136.029 E.81993
G1 X158.832 Y139.266 E.1027
G1 X158.367 Y140.351 E.03701
G1 X158.178 Y140.596 E.0097
G1 X157.071 Y141.393 E.04278
G1 X156.336 Y141.524 E.02341
G1 X96.694 Y142.561 E1.8703
G1 X95.717 Y142.53 E.03067
G1 X94.674 Y142.371 E.03305
G1 X93.516 Y142.029 E.03788
G1 X92.687 Y141.665 E.02841
G1 X91.779 Y141.128 E.03305
G1 X90.749 Y140.3 E.04144
G1 X90.031 Y139.528 E.03305
G1 X89.277 Y138.443 E.04144
G1 X88.808 Y137.499 E.03305
G1 X88.392 Y136.244 E.04144
G1 X88.209 Y135.206 E.03305
G1 X88.163 Y133.999 E.03788
G1 X92.671 Y74.007 E1.88631
G1 X93.515 Y70.402 E.1161
G1 X94.224 Y69.224 E.0431
M204 S1000
;WIPE_START
G1 F8640
G1 X95.863 Y68.477 E-.41595
G1 X97.352 Y68.433 E-.34405
;WIPE_END
G1 E-.04 F2100
G1 Z.6 F720
G1 X124.821 Y74.677 F10800
G1 Z.2 F720
G1 E.8 F2100
M204 S800
G1 F1200
G1 X124.991 Y74.015 E.02144
G1 X125.178 Y73.535 E.01614
G1 X125.419 Y73.061 E.01667
G1 X125.706 Y72.612 E.01671
G1 X126.019 Y72.214 E.01589
G1 X126.389 Y71.827 E.01677
G1 X126.779 Y71.492 E.01612
G1 X127.195 Y71.199 E.01596
G1 X127.625 Y70.954 E.01552
G1 X128.093 Y70.741 E.01611
G1 X128.597 Y70.57 E.01669
G1 X129.125 Y70.448 E.01698
G1 X129.676 Y70.38 E.01744
G1 X130.454 Y70.373 E.02439
G1 X146.625 Y72.314 E.51066
G1 X147.235 Y72.356 E.01917
G1 X147.893 Y72.302 E.02072
G1 X148.524 Y72.343 E.01982
G1 X151.685 Y72.721 E.09981
G1 X152.454 Y72.963 E.02529
G1 X153.5 Y73.185 E.03351
G1 X154.241 Y73.507 E.02532
G1 X155.05 Y74.152 E.03246
G1 X155.423 Y74.658 E.01971
G1 X155.693 Y75.196 E.01885
G1 X155.915 Y76.308 E.03557
G1 X155.915 Y93.492 E.53878
G1 X158.276 Y95.852 E.10468
G1 X158.623 Y96.359 E.01926
G1 X158.852 Y96.965 E.0203
G1 X158.915 Y109.566 E.39511
G1 X158.745 Y110.302 E.02371
G1 X158.367 Y110.964 E.0239
G1 X156.416 Y112.938 E.08702
G1 X156.419 Y120.808 E.24674
G1 X156.434 Y121.12 E.00979
G1 X156.611 Y122.234 E.03538
G1 X156.616 Y123.42 E.03718
G1 X156.448 Y124.616 E.03787
G1 X156.424 Y124.924 E.0097
G1 X156.415 Y134.79 E.30932
G1 X156.204 Y135.559 E.02502
G1 X155.884 Y136.091 E.01947
G1 X155.376 Y136.586 E.02223
G1 X154.723 Y136.93 E.02313
G1 X154.097 Y137.067 E.02009
G1 X131.491 Y137.068 E.70882
G1 X130.732 Y136.864 E.02464
G1 X130.19 Y136.542 E.01975
G1 X129.656 Y135.985 E.0242
G1 X129.325 Y135.335 E.02287
G1 X129.241 Y134.987 E.01124
G1 X129.115 Y133.262 E.05422
G1 X129.121 Y131.132 E.0668
G1 X129.208 Y130.149 E.03092
G1 X129.213 Y120.662 E.29747
G1 X129.28 Y120.186 E.01507
G1 X129.817 Y119.138 E.0369
G1 X133.213 Y115.742 E.1506
G1 X133.211 Y110.333 E.16959
G1 X133.158 Y108.834 E.04704
G1 X133.197 Y108.199 E.01996
G1 X133.213 Y107.299 E.02821
G1 X133.201 Y90.474 E.52755
G1 X133.138 Y89.67 E.02527
G1 X133.031 Y88.872 E.02525
G1 X132.804 Y87.816 E.03386
G1 X132.5 Y86.82 E.03266
G1 X132.099 Y85.817 E.03386
G1 X131.743 Y85.095 E.02524
G1 X131.349 Y84.397 E.02515
G1 X130.906 Y83.728 E.02515
G1 X130.424 Y83.083 E.02524
G1 X129.713 Y82.271 E.03386
G1 X128.963 Y81.548 E.03266
G1 X128.121 Y80.863 E.03402
G1 X126.771 Y79.933 E.05141
G1 X126.432 Y79.644 E.01397
G1 X126.114 Y79.325 E.01412
G1 X125.779 Y78.92 E.01649
G1 X125.426 Y78.384 E.0201
G1 X125.189 Y77.921 E.01632
G1 X125.002 Y77.448 E.01595
G1 X124.869 Y76.995 E.01478
G1 X124.774 Y76.519 E.01524
G1 X124.724 Y76.048 E.01484
G1 X124.716 Y75.56 E.01531
G1 X124.758 Y75.03 E.01665
G1 X124.81 Y74.736 E.00937
M204 S1000
G1 X125.181 Y74.803 F10800
M204 S800
G1 F1200
G1 X125.217 Y74.601 E.00644
G1 X125.351 Y74.127 E.01545
G1 X125.526 Y73.681 E.015
G1 X125.742 Y73.256 E.01496
G1 X126.008 Y72.837 E.01556
G1 X126.298 Y72.467 E.01474
G1 X126.642 Y72.107 E.01561
G1 X127.004 Y71.795 E.01498
G1 X127.391 Y71.522 E.01485
G1 X127.789 Y71.293 E.01441
G1 X128.224 Y71.095 E.01497
G1 X128.692 Y70.935 E.01551
G1 X129.182 Y70.821 E.01577
G1 X129.692 Y70.757 E.01611
G1 X130.422 Y70.749 E.02289
G1 X146.589 Y72.689 E.51056
G1 X147.238 Y72.734 E.0204
G1 X147.883 Y72.679 E.0203
G1 X148.495 Y72.719 E.01921
G1 X151.622 Y73.093 E.09876
G1 X152.357 Y73.328 E.02419
G1 X153.404 Y73.55 E.03355
G1 X154.028 Y73.819 E.0213
G1 X154.763 Y74.398 E.02935
G1 X155.094 Y74.843 E.01737
G1 X155.344 Y75.342 E.01752
G1 X155.538 Y76.326 E.03146
G1 X155.538 Y93.648 E.54311
G1 X157.996 Y96.106 E.109
G1 X158.298 Y96.551 E.01684
G1 X158.487 Y97.064 E.01714
G1 X158.538 Y109.544 E.39133
G1 X158.385 Y110.186 E.0207
G1 X158.054 Y110.753 E.02057
G1 X156.039 Y112.783 E.08969
G1 X156.042 Y120.817 E.25189
G1 X156.058 Y121.159 E.01074
G1 X156.234 Y122.25 E.03467
G1 X156.238 Y123.408 E.03628
G1 X156.073 Y124.575 E.03697
G1 X156.047 Y124.91 E.01053
G1 X156.038 Y134.762 E.30893
G1 X155.848 Y135.431 E.02179
G1 X155.601 Y135.841 E.01501
G1 X155.172 Y136.268 E.01899
G1 X154.614 Y136.568 E.01986
G1 X154.076 Y136.69 E.0173
G1 X131.517 Y136.691 E.70732
G1 X130.859 Y136.508 E.0214
G1 X130.41 Y136.234 E.01652
G1 X129.951 Y135.748 E.02096
G1 X129.673 Y135.189 E.01958
G1 X129.616 Y134.945 E.00784
G1 X129.492 Y133.256 E.05311
G1 X129.498 Y131.145 E.06619
G1 X129.565 Y130.532 E.01934
G1 X129.585 Y130.156 E.0118
G1 X129.59 Y120.676 E.29724
G1 X129.649 Y120.271 E.01283
G1 X130.104 Y119.384 E.03125
G1 X133.59 Y115.898 E.15458
G1 X133.588 Y110.326 E.1747
G1 X133.535 Y108.83 E.04695
G1 X133.573 Y108.214 E.01935
G1 X133.59 Y107.302 E.02859
G1 X133.578 Y90.459 E.52812
G1 X133.513 Y89.631 E.02605
G1 X133.403 Y88.807 E.02604
G1 X133.17 Y87.726 E.03469
G1 X132.855 Y86.691 E.03391
G1 X132.444 Y85.664 E.0347
G1 X132.077 Y84.919 E.02604
G1 X131.67 Y84.2 E.0259
G1 X131.214 Y83.511 E.0259
G1 X130.717 Y82.846 E.02604
G1 X129.989 Y82.013 E.03469
G1 X129.21 Y81.263 E.03391
G1 X128.348 Y80.561 E.03488
G1 X127.008 Y79.64 E.05097
G1 X126.682 Y79.362 E.01341
G1 X126.388 Y79.066 E.0131
G1 X126.076 Y78.688 E.01536
G1 X125.757 Y78.203 E.01821
G1 X125.536 Y77.773 E.01516
G1 X125.361 Y77.333 E.01484
G1 X125.233 Y76.897 E.01423
G1 X125.146 Y76.454 E.01416
G1 X125.1 Y76.017 E.01378
G1 X125.093 Y75.563 E.01423
G1 X125.133 Y75.07 E.01551
G1 X125.17 Y74.862 E.00664
M204 S1000
G1 X125.541 Y74.928 F10800
M204 S800
G1 F1200
G1 X125.583 Y74.694 E.00746
G1 X125.706 Y74.255 E.0143
G1 X125.867 Y73.843 E.01386
G1 X126.065 Y73.45 E.01381
G1 X126.311 Y73.062 E.01441
G1 X126.578 Y72.72 E.01359
G1 X126.896 Y72.386 E.01446
G1 X127.23 Y72.097 E.01384
G1 X127.587 Y71.844 E.01373
G1 X127.954 Y71.632 E.0133
G1 X128.355 Y71.449 E.01382
G1 X128.788 Y71.3 E.01434
G1 X129.24 Y71.194 E.01456
G1 X129.708 Y71.134 E.01479
G1 X130.389 Y71.125 E.02137
G1 X146.545 Y73.064 E.51018
G1 X146.947 Y73.105 E.01268
G1 X147.256 Y73.111 E.0097
G1 X147.873 Y73.056 E.01944
G1 X148.465 Y73.095 E.01858
G1 X151.559 Y73.465 E.0977
G1 X152.249 Y73.69 E.02275
G1 X152.588 Y73.775 E.01096
G1 X153.279 Y73.907 E.02205
G1 X153.817 Y74.133 E.01831
G1 X154.476 Y74.644 E.02615
G1 X154.781 Y75.054 E.016
G1 X154.995 Y75.486 E.01513
G1 X155.161 Y76.344 E.0274
G1 X155.161 Y93.804 E.54745
G1 X157.716 Y96.359 E.1133
M73 P1 R70
G1 X157.971 Y96.74 E.01435
M73 Q1 S71
G1 X158.121 Y97.16 E.01399
G1 X158.161 Y109.521 E.38759
G1 X158.026 Y110.067 E.01761
G1 X157.743 Y110.538 E.01724
G1 X155.661 Y112.627 E.09247
G1 X155.665 Y120.825 E.25706
G1 X155.682 Y121.198 E.0117
G1 X155.857 Y122.267 E.03396
G1 X155.861 Y123.395 E.03537
G1 X155.698 Y124.533 E.03606
G1 X155.67 Y124.895 E.01137
G1 X155.661 Y134.734 E.3085
G1 X155.495 Y135.298 E.01843
G1 X155.294 Y135.621 E.01193
G1 X154.929 Y135.978 E.016
G1 X154.462 Y136.222 E.01652
G1 X154.056 Y136.312 E.01307
G1 X131.544 Y136.314 E.70582
G1 X130.989 Y136.154 E.01812
G1 X130.663 Y135.955 E.01197
G1 X130.273 Y135.551 E.01761
G1 X130.034 Y135.078 E.01662
G1 X129.991 Y134.901 E.0057
G1 X129.869 Y133.25 E.05193
G1 X129.875 Y131.156 E.06564
G1 X129.941 Y130.563 E.01872
G1 X129.962 Y130.166 E.01246
G1 X129.967 Y120.69 E.2971
G1 X130.017 Y120.357 E.01055
G1 X130.391 Y119.63 E.02564
G1 X133.967 Y116.054 E.15856
G1 X133.965 Y110.32 E.17981
G1 X133.912 Y108.826 E.04686
G1 X133.95 Y108.23 E.01873
G1 X133.967 Y107.306 E.02898
G1 X133.955 Y90.444 E.52868
G1 X133.889 Y89.591 E.02684
G1 X133.774 Y88.743 E.02683
G1 X133.536 Y87.635 E.03553
G1 X133.209 Y86.562 E.03515
G1 X132.789 Y85.51 E.03553
G1 X132.41 Y84.743 E.02683
G1 X131.992 Y84.003 E.02665
G1 X131.523 Y83.294 E.02664
G1 X131.011 Y82.609 E.02683
G1 X130.265 Y81.756 E.03553
G1 X129.458 Y80.978 E.03515
G1 X128.574 Y80.258 E.03573
G1 X127.245 Y79.346 E.05055
G1 X126.944 Y79.091 E.01235
G1 X126.662 Y78.807 E.01256
G1 X126.374 Y78.456 E.01423
G1 X126.087 Y78.021 E.01635
G1 X125.883 Y77.624 E.014
G1 X125.72 Y77.217 E.01372
G1 X125.601 Y76.815 E.01315
G1 X125.52 Y76.406 E.01308
G1 X125.476 Y75.987 E.01323
G1 X125.47 Y75.567 E.01314
G1 X125.531 Y74.987 E.01829
M204 S1000
G1 X125.901 Y75.054 F10800
M204 S800
G1 F1200
G1 X125.952 Y74.77 E.00904
G1 X126.066 Y74.367 E.01314
G1 X126.214 Y73.989 E.01271
G1 X126.397 Y73.629 E.01267
G1 X126.624 Y73.272 E.01326
G1 X126.858 Y72.973 E.01191
G1 X127.15 Y72.664 E.01331
G1 X127.456 Y72.399 E.0127
G1 X127.784 Y72.166 E.01262
G1 X128.12 Y71.971 E.01219
G1 X128.488 Y71.802 E.01268
G1 X128.884 Y71.665 E.01316
G1 X129.299 Y71.566 E.01336
G1 X129.725 Y71.51 E.01347
G1 X130.357 Y71.501 E.01983
G1 X146.503 Y73.439 E.50988
G1 X146.924 Y73.482 E.01326
G1 X147.27 Y73.489 E.01086
G1 X147.864 Y73.433 E.01871
G1 X148.435 Y73.471 E.01794
G1 X151.495 Y73.837 E.09662
G1 X152.143 Y74.052 E.02141
G1 X152.508 Y74.144 E.01181
G1 X153.156 Y74.263 E.02065
G1 X153.61 Y74.449 E.01538
G1 X154.191 Y74.892 E.02293
G1 X154.451 Y75.237 E.01353
G1 X154.645 Y75.63 E.01374
G1 X154.784 Y76.361 E.02334
G1 X154.784 Y93.96 E.55181
G1 X157.435 Y96.612 E.11757
G1 X157.642 Y96.926 E.01178
G1 X157.755 Y97.252 E.01084
G1 X157.784 Y109.497 E.38393
G1 X157.669 Y109.943 E.01442
G1 X157.435 Y110.32 E.01391
G1 X155.284 Y112.471 E.09538
G1 X155.288 Y120.834 E.26223
G1 X155.307 Y121.238 E.01267
G1 X155.48 Y122.284 E.03324
G1 X155.484 Y123.383 E.03445
G1 X155.323 Y124.492 E.03514
G1 X155.293 Y124.88 E.01223
G1 X155.284 Y134.704 E.30802
G1 X155.143 Y135.159 E.01494
G1 X154.99 Y135.397 E.00885
G1 X154.69 Y135.685 E.01305
G1 X154.315 Y135.875 E.01316
G1 X154.036 Y135.935 E.00898
G1 X131.573 Y135.937 E.70429
G1 X131.125 Y135.801 E.01468
M73 P1 R69
G1 X130.887 Y135.65 E.00886
G1 X130.567 Y135.313 E.01457
G1 X130.394 Y134.965 E.01218
G1 X130.366 Y134.856 E.00354
G1 X130.246 Y133.243 E.05069
G1 X130.252 Y131.168 E.06508
G1 X130.317 Y130.594 E.01811
G1 X130.339 Y130.176 E.01313
G1 X130.344 Y120.705 E.29694
G1 X130.385 Y120.446 E.00824
G1 X130.678 Y119.876 E.02009
G1 X134.344 Y116.211 E.16255
G1 X134.343 Y110.313 E.18492
G1 X134.289 Y108.822 E.04677
G1 X134.327 Y108.246 E.01811
G1 X134.344 Y107.309 E.02938
G1 X134.332 Y90.429 E.52925
G1 X134.264 Y89.551 E.02763
G1 X134.146 Y88.678 E.02763
G1 X133.903 Y87.544 E.03636
G1 X133.564 Y86.433 E.0364
G1 X133.133 Y85.357 E.03636
G1 X132.744 Y84.566 E.02762
G1 X132.314 Y83.806 E.0274
G1 X131.831 Y83.077 E.02739
G1 X131.304 Y82.371 E.02762
G1 X130.541 Y81.499 E.03636
G1 X129.705 Y80.693 E.0364
G1 X128.799 Y79.956 E.03659
G1 X127.481 Y79.052 E.05012
G1 X127.195 Y78.809 E.01178
G1 X126.937 Y78.548 E.01151
G1 X126.672 Y78.225 E.0131
G1 X126.418 Y77.838 E.01452
G1 X126.229 Y77.474 E.01285
G1 X126.079 Y77.101 E.01261
G1 X125.969 Y76.733 E.01205
G1 X125.892 Y76.341 E.01252
G1 X125.852 Y75.957 E.01212
G1 X125.847 Y75.572 E.01206
G1 X125.89 Y75.113 E.01447
M204 S1000
G1 X126.261 Y75.18 F10800
M204 S800
G1 F1200
G1 X126.321 Y74.847 E.01062
G1 X126.426 Y74.479 E.01199
G1 X126.562 Y74.136 E.01156
G1 X126.729 Y73.808 E.01154
G1 X126.928 Y73.496 E.0116
G1 X127.139 Y73.224 E.0108
G1 X127.405 Y72.942 E.01215
G1 X127.683 Y72.7 E.01156
G1 X127.981 Y72.487 E.0115
G1 X128.287 Y72.309 E.01108
G1 X128.621 Y72.155 E.01154
G1 X128.982 Y72.029 E.01198
G1 X129.359 Y71.939 E.01217
G1 X129.743 Y71.887 E.01215
G1 X130.325 Y71.877 E.01826
G1 X146.462 Y73.813 E.50957
G1 X146.901 Y73.858 E.01383
M73 Q1 S70
G1 X147.285 Y73.866 E.01205
G1 X147.855 Y73.811 E.01797
G1 X148.405 Y73.847 E.01729
G1 X151.43 Y74.209 E.09552
G1 X152.036 Y74.414 E.02005
G1 X152.429 Y74.513 E.01272
G1 X153.037 Y74.622 E.01936
G1 X153.406 Y74.767 E.01244
G1 X153.907 Y75.141 E.0196
G1 X154.138 Y75.449 E.01208
G1 X154.295 Y75.771 E.01123
G1 X154.407 Y76.378 E.01935
G1 X154.407 Y94.117 E.55618
G1 X157.156 Y96.866 E.12189
G1 X157.293 Y97.072 E.00778
G1 X157.388 Y97.346 E.00908
G1 X157.407 Y109.471 E.38018
G1 X157.313 Y109.815 E.01116
G1 X157.154 Y110.067 E.00936
G1 X154.907 Y112.314 E.09964
G1 X154.911 Y120.843 E.26741
G1 X154.931 Y121.269 E.01337
G1 X154.986 Y121.684 E.01314
G1 X155.103 Y122.305 E.01979
G1 X155.107 Y123.37 E.0334
G1 X154.948 Y124.449 E.03422
G1 X154.916 Y124.866 E.01309
G1 X154.907 Y134.672 E.30748
G1 X154.794 Y135.016 E.01135
G1 X154.709 Y135.145 E.00484
G1 X154.491 Y135.363 E.00967
G1 X154.168 Y135.527 E.01136
G1 X154.017 Y135.558 E.00484
G1 X131.604 Y135.56 E.70272
G1 X131.266 Y135.451 E.01116
G1 X131.14 Y135.37 E.00468
G1 X130.889 Y135.114 E.01125
G1 X130.751 Y134.843 E.00956
G1 X130.623 Y133.237 E.05049
G1 X130.629 Y131.18 E.06451
G1 X130.693 Y130.626 E.01748
G1 X130.716 Y130.186 E.01382
G1 X130.722 Y120.722 E.29674
G1 X130.752 Y120.536 E.00588
G1 X130.966 Y120.122 E.01461
G1 X134.721 Y116.367 E.16654
G1 X134.72 Y110.306 E.19003
G1 X134.666 Y108.819 E.04666
G1 X134.704 Y108.262 E.01749
G1 X134.721 Y107.312 E.02979
G1 X134.709 Y90.415 E.52982
G1 X134.639 Y89.511 E.02841
G1 X134.518 Y88.613 E.02842
G1 X134.269 Y87.453 E.03719
G1 X134.106 Y86.875 E.01883
G1 X133.918 Y86.304 E.01883
G1 X133.478 Y85.203 E.0372
G1 X133.077 Y84.39 E.02841
G1 X132.635 Y83.609 E.02815
G1 X132.14 Y82.86 E.02814
G1 X131.598 Y82.134 E.02842
G1 X130.816 Y81.241 E.03719
G1 X130.393 Y80.815 E.01883
G1 X129.952 Y80.408 E.01883
G1 X129.025 Y79.654 E.03746
G1 X127.717 Y78.758 E.04971
G1 X127.457 Y78.538 E.01069
G1 X127.211 Y78.289 E.01095
G1 X126.971 Y77.994 E.01195
G1 X126.747 Y77.655 E.01272
G1 X126.575 Y77.324 E.0117
G1 X126.437 Y76.984 E.0115
G1 X126.337 Y76.65 E.01095
G1 X126.266 Y76.293 E.0114
G1 X126.228 Y75.927 E.01155
G1 X126.224 Y75.578 E.01095
G1 X126.253 Y75.24 E.01064
M204 S1000
