; generated by PrusaSlicer 2.4.2+win64 on 2022-06-08 at 13:02:07 UTC

; 

; external perimeters extrusion width = 0.45mm
; perimeters extrusion width = 0.45mm
; infill extrusion width = 0.45mm
; solid infill extrusion width = 0.45mm
; top infill extrusion width = 0.40mm
; support material extrusion width = 0.35mm
; first layer extrusion width = 0.42mm

; external perimeters extrusion width = 0.45mm
; perimeters extrusion width = 0.45mm
; infill extrusion width = 0.45mm
; solid infill extrusion width = 0.45mm
; top infill extrusion width = 0.40mm
; support material extrusion width = 0.35mm
; first layer extrusion width = 0.42mm

M73 P0 R76
M73 Q0 S78
M107
;TYPE:Custom
M862.3 P "MK3S" ; printer model check
M862.1 P0.4 ; nozzle diameter check
M115 U3.10.0 ; tell printer latest fw version
G90 ; use absolute coordinates
M83 ; extruder relative mode
M104 S215 ; set extruder temp
M140 S60 ; set bed temp
M190 S60 ; wait for bed temp
M109 S215 ; wait for extruder temp
G28 W ; home all without mesh bed level
G80 ; mesh bed leveling
G1 Z0.2 F720
G1 Y-3 F1000 ; go outside print area
G92 E0
G1 X60 E9 F1000 ; intro line
G1 X100 E12.5 F1000 ; intro line
G92 E0
M221 S95

; Don't change E values below. Excessive value can damage the printer.

M907 E538 ; set extruder motor current
G21 ; set units to millimeters
G90 ; use absolute coordinates
M83 ; use relative distances for extrusion
M900 K0.05 ; Filament gcode LA 1.5
M900 K30 ; Filament gcode LA 1.0
M107
;LAYER_CHANGE
;Z:0.2
;HEIGHT:0.2
;BEFORE_LAYER_CHANGE
G92 E0.0
;0.2


G1 E-.8 F2100
G1 Z.4 F720
;AFTER_LAYER_CHANGE
;0.2
G1 X87.204 Y69.285 F10800
G1 Z.2 F720
G1 E.8 F2100
M204 S800
;TYPE:Skirt/Brim
;WIDTH:0.42
G1 F1200
G1 X87.314 Y69.175 E.0049
G1 X88.935 Y68.479 E.05529
M73 Q0 S77
G1 X130.485 Y67.441 E1.30318
G1 X152.378 Y69.868 E.69064
G1 X154.655 Y70.474 E.07388
G1 X155.4 Y70.79 E.02538
G1 X156.253 Y71.307 E.03126
G1 X157.019 Y71.958 E.03153
G1 X157.524 Y72.528 E.02387
G1 X158.081 Y73.371 E.03168
G1 X158.428 Y74.114 E.0257
G1 X158.805 Y75.559 E.04683
G1 X161.836 Y96.591 E.66625
G1 X161.86 Y109.997 E.42036
G1 X159.349 Y136.027 E.81993
G1 X158.851 Y139.264 E.1027
G1 X158.386 Y140.349 E.03701
G1 X158.197 Y140.594 E.0097
G1 X156.508 Y141.514 E.0603
G1 X125.225 Y144.087 E.98415
G1 X93.609 Y144.095 E.9913
G1 X91.929 Y143.399 E.05704
G1 X91.129 Y141.797 E.05613
G1 X86.515 Y84.12 E1.8142
G1 X86.508 Y70.966 E.41243
G1 X87.181 Y69.34 E.05516
M204 S1000
;WIPE_START
G1 F8640
G1 X87.314 Y69.175 E-.04917
G1 X88.935 Y68.479 E-.40719
G1 X90.25 Y68.446 E-.30364
;WIPE_END
G1 E-.04 F2100
G1 Z.6 F720
G1 X110.361 Y99.019 F10800
G1 Z.2 F720
G1 E.8 F2100
M204 S800
G1 F1200
G1 X110.826 Y98.673 E.01816
G1 X111.339 Y98.344 E.01912
G1 X111.827 Y98.074 E.01748
G1 X112.335 Y97.833 E.01761
G1 X112.899 Y97.61 E.01902
G1 X113.535 Y97.408 E.02092
G1 X114.044 Y97.283 E.01645
G1 X114.572 Y97.187 E.0168
G1 X115.235 Y97.112 E.02094
G1 X115.764 Y97.087 E.01659
G1 X116.295 Y97.094 E.01665
G1 X116.957 Y97.147 E.02082
G1 X117.506 Y97.228 E.01741
G1 X118.045 Y97.343 E.01729
G1 X118.583 Y97.493 E.01749
G1 X119.127 Y97.682 E.01805
G1 X119.69 Y97.922 E.01922
G1 X120.188 Y98.172 E.01747
G1 X120.674 Y98.455 E.01763
G1 X121.183 Y98.8 E.01927
G1 X121.675 Y99.186 E.01962
G1 X122.08 Y99.548 E.01704
G1 X122.467 Y99.938 E.01721
G1 X122.842 Y100.368 E.01791
G1 X123.193 Y100.826 E.0181
G1 X123.515 Y101.308 E.01818
G1 X123.851 Y101.897 E.02124
G1 X124.137 Y102.5 E.02092
G1 X124.451 Y103.344 E.02823
G1 X124.656 Y104.108 E.02482
G1 X124.757 Y104.644 E.01708
G1 X124.827 Y105.201 E.01761
G1 X124.861 Y105.739 E.0169
G1 X124.862 Y106.289 E.01724
G1 X124.815 Y106.993 E.02213
G1 X124.746 Y107.501 E.01608
G1 X124.647 Y108.005 E.0161
G1 X124.468 Y108.677 E.02182
G1 X124.302 Y109.164 E.01614
G1 X124.104 Y109.652 E.01649
G1 X123.804 Y110.266 E.02144
G1 X123.537 Y110.73 E.01679
G1 X123.248 Y111.17 E.01649
G1 X122.826 Y111.724 E.02185
G1 X122.467 Y112.135 E.01711
G1 X122.082 Y112.524 E.01715
G1 X121.674 Y112.889 E.01716
G1 X121.253 Y113.221 E.01682
G1 X120.69 Y113.608 E.02141
G1 X120.237 Y113.875 E.01648
G1 X119.773 Y114.113 E.01636
G1 X119.13 Y114.39 E.02196
G1 X118.631 Y114.565 E.01658
G1 X118.122 Y114.711 E.01661
G1 X117.467 Y114.852 E.02099
G1 X116.865 Y114.937 E.01905
G1 X116.293 Y114.979 E.018
G1 X115.715 Y114.985 E.01811
G1 X115.188 Y114.957 E.01655
G1 X114.662 Y114.899 E.01658
G1 X114.008 Y114.782 E.02085
G1 X113.499 Y114.655 E.01644
G1 X112.988 Y114.495 E.01678
G1 X112.339 Y114.242 E.02184
G1 X111.876 Y114.024 E.01607
G1 X111.419 Y113.776 E.01629
G1 X110.83 Y113.403 E.02186
G1 X110.402 Y113.087 E.01666
G1 X109.994 Y112.749 E.01662
G1 X109.508 Y112.287 E.02103
G1 X109.099 Y111.838 E.01903
G1 X108.742 Y111.391 E.01795
G1 X108.423 Y110.933 E.0175
G1 X108.149 Y110.487 E.0164
G1 X107.903 Y110.026 E.01638
G1 X107.616 Y109.389 E.02192
G1 X107.433 Y108.893 E.01659
G1 X107.278 Y108.385 E.01663
G1 X107.124 Y107.72 E.0214
G1 X107.037 Y107.175 E.01729
G1 X106.984 Y106.623 E.01739
G1 X106.964 Y106.062 E.0176
G1 X106.98 Y105.512 E.01726
G1 X107.044 Y104.85 E.02085
G1 X107.134 Y104.302 E.01741
G1 X107.258 Y103.765 E.01728
G1 X107.416 Y103.23 E.01749
G1 X107.614 Y102.689 E.01806
G1 X107.863 Y102.13 E.01921
G1 X108.121 Y101.636 E.01746
G1 X108.413 Y101.155 E.01763
G1 X108.765 Y100.652 E.01927
G1 X109.159 Y100.166 E.0196
G1 X109.534 Y99.76 E.01733
G1 X109.924 Y99.387 E.01692
G1 X110.315 Y99.057 E.01603
M204 S1000
G1 X110.558 Y99.346 F10800
M204 S800
G1 F1200
G1 X111.045 Y98.98 E.0191
G1 X111.537 Y98.665 E.01833
G1 X112.004 Y98.407 E.01673
G1 X112.49 Y98.177 E.01686
G1 X113.031 Y97.963 E.01824
G1 X113.63 Y97.773 E.01971
G1 X114.129 Y97.651 E.01608
G1 X114.633 Y97.559 E.01607
G1 X115.259 Y97.488 E.01975
G1 X115.776 Y97.464 E.01622
G1 X116.284 Y97.471 E.01594
G1 X116.908 Y97.521 E.01963
G1 X117.434 Y97.598 E.01665
G1 X117.961 Y97.711 E.01691
G1 X118.475 Y97.854 E.01674
G1 X118.996 Y98.036 E.0173
G1 X119.537 Y98.266 E.01842
G1 X120.013 Y98.506 E.01672
G1 X120.478 Y98.778 E.01687
G1 X120.966 Y99.108 E.01848
G1 X121.429 Y99.471 E.01843
G1 X121.825 Y99.825 E.01666
G1 X122.194 Y100.198 E.01647
G1 X122.553 Y100.611 E.01716
G1 X122.89 Y101.051 E.01736
G1 X123.198 Y101.512 E.0174
G1 X123.514 Y102.065 E.01996
G1 X123.786 Y102.639 E.01992
G1 X124.094 Y103.467 E.02769
G1 X124.287 Y104.186 E.02333
G1 X124.384 Y104.697 E.01631
G1 X124.451 Y105.231 E.01688
G1 X124.484 Y105.746 E.01617
G1 X124.485 Y106.27 E.01645
G1 X124.44 Y106.949 E.02132
G1 X124.374 Y107.434 E.01536
G1 X124.278 Y107.926 E.01572
G1 X124.109 Y108.562 E.02062
G1 X123.947 Y109.038 E.01576
G1 X123.757 Y109.504 E.01577
G1 X123.474 Y110.084 E.02025
G1 X123.219 Y110.528 E.01606
G1 X122.937 Y110.957 E.01611
G1 X122.538 Y111.481 E.02064
G1 X122.195 Y111.874 E.01637
G1 X121.826 Y112.247 E.01643
G1 X121.436 Y112.597 E.01643
G1 X121.024 Y112.922 E.01644
G1 X120.493 Y113.286 E.02022
G1 X120.06 Y113.542 E.01575
G1 X119.607 Y113.775 E.01598
G1 X118.999 Y114.037 E.02075
G1 X118.511 Y114.207 E.01619
G1 X118.024 Y114.347 E.0159
G1 X117.407 Y114.479 E.01978
G1 X116.831 Y114.561 E.01826
G1 X116.283 Y114.602 E.01723
G1 X115.729 Y114.608 E.01735
G1 X115.213 Y114.581 E.01619
G1 X114.71 Y114.525 E.01587
G1 X114.093 Y114.414 E.01967
G1 X113.596 Y114.291 E.01607
G1 X113.107 Y114.137 E.01605
G1 X112.494 Y113.898 E.02064
G1 X112.041 Y113.685 E.01569
G1 X111.605 Y113.448 E.01558
G1 X111.048 Y113.095 E.02066
G1 X110.639 Y112.794 E.01595
G1 X110.24 Y112.463 E.01624
G1 X109.782 Y112.028 E.0198
G1 X109.39 Y111.598 E.01824
G1 X109.048 Y111.169 E.01719
G1 X108.741 Y110.731 E.01678
G1 X108.479 Y110.305 E.01569
G1 X108.239 Y109.854 E.01601
G1 X107.967 Y109.252 E.0207
G1 X107.788 Y108.767 E.01621
G1 X107.641 Y108.282 E.01592
G1 X107.495 Y107.654 E.02019
G1 X107.411 Y107.122 E.0169
G1 X107.36 Y106.593 E.01666
G1 X107.342 Y106.056 E.01686
G1 X107.357 Y105.529 E.01652
G1 X107.417 Y104.905 E.01966
G1 X107.503 Y104.381 E.01666
G1 X107.624 Y103.855 E.0169
G1 X107.776 Y103.344 E.01674
G1 X107.966 Y102.825 E.01731
G1 X108.205 Y102.289 E.01842
G1 X108.452 Y101.816 E.01672
G1 X108.732 Y101.356 E.01687
G1 X109.07 Y100.874 E.01848
G1 X109.44 Y100.417 E.01843
G1 X109.799 Y100.028 E.01659
G1 X110.18 Y99.663 E.01654
G1 X110.512 Y99.384 E.01359
M204 S1000
G1 X110.754 Y99.673 F10800
M204 S800
G1 F1200
G1 X111.264 Y99.287 E.02004
G1 X111.735 Y98.986 E.01753
G1 X112.181 Y98.74 E.01598
G1 X112.646 Y98.52 E.0161
G1 X113.163 Y98.316 E.01745
G1 X113.726 Y98.138 E.0185
G1 X114.213 Y98.019 E.0157
G1 X114.694 Y97.931 E.01534
G1 X115.283 Y97.864 E.01858
G1 X115.777 Y97.842 E.0155
G1 X116.273 Y97.848 E.01556
G1 X116.859 Y97.895 E.01844
G1 X117.372 Y97.971 E.01627
G1 X117.877 Y98.078 E.01616
G1 X118.368 Y98.216 E.016
G1 X118.866 Y98.39 E.01655
G1 X119.383 Y98.61 E.01763
G1 X119.838 Y98.84 E.01598
G1 X120.281 Y99.1 E.01611
G1 X120.749 Y99.417 E.0177
G1 X121.182 Y99.756 E.01727
G1 X121.561 Y100.094 E.01592
G1 X121.922 Y100.459 E.01609
G1 X122.265 Y100.854 E.0164
G1 X122.587 Y101.275 E.01661
G1 X122.881 Y101.716 E.01661
G1 X123.176 Y102.234 E.0187
G1 X123.436 Y102.779 E.01892
G1 X123.738 Y103.59 E.02715
G1 X123.918 Y104.263 E.02185
G1 X124.01 Y104.75 E.01554
G1 X124.075 Y105.261 E.01614
G1 X124.108 Y105.764 E.0158
G1 X124.108 Y106.264 E.01569
G1 X124.066 Y106.904 E.02012
G1 X124.002 Y107.378 E.01498
G1 X123.91 Y107.847 E.015
G1 X123.75 Y108.446 E.01943
G1 X123.592 Y108.911 E.01539
G1 X123.41 Y109.355 E.01505
G1 X123.144 Y109.901 E.01906
G1 X122.894 Y110.335 E.01568
G1 X122.625 Y110.745 E.01537
G1 X122.249 Y111.238 E.01945
G1 X121.922 Y111.614 E.01562
G1 X121.562 Y111.978 E.01606
G1 X121.189 Y112.312 E.0157
G1 X120.796 Y112.622 E.0157
G1 X120.295 Y112.965 E.01903
G1 X119.873 Y113.214 E.01537
G1 X119.44 Y113.436 E.01525
G1 X118.868 Y113.683 E.01955
G1 X118.402 Y113.846 E.01547
G1 X117.926 Y113.983 E.01553
G1 X117.347 Y114.107 E.01856
G1 X116.796 Y114.186 E.01747
G1 X116.272 Y114.226 E.01646
G1 X115.743 Y114.231 E.01659
G1 X115.249 Y114.205 E.01549
G1 X114.758 Y114.151 E.0155
G1 X114.178 Y114.047 E.01848
G1 X113.692 Y113.926 E.01569
G1 X113.226 Y113.78 E.01531
G1 X112.648 Y113.554 E.01945
G1 X112.216 Y113.351 E.01496
G1 X111.791 Y113.119 E.0152
G1 X111.266 Y112.787 E.01946
G1 X110.867 Y112.493 E.01557
G1 X110.485 Y112.177 E.01553
G1 X110.056 Y111.768 E.01858
G1 X109.68 Y111.357 E.01746
G1 X109.353 Y110.948 E.01643
G1 X109.059 Y110.529 E.01605
G1 X108.804 Y110.112 E.01532
G1 X108.575 Y109.682 E.01528
G1 X108.319 Y109.115 E.01951
G1 X108.147 Y108.652 E.01548
G1 X108.003 Y108.178 E.01554
G1 X107.867 Y107.588 E.01898
G1 X107.785 Y107.079 E.01616
G1 X107.736 Y106.574 E.01592
G1 X107.719 Y106.06 E.01612
G1 X107.733 Y105.546 E.01613
G1 X107.79 Y104.96 E.01846
G1 X107.874 Y104.448 E.01627
G1 X107.99 Y103.946 E.01616
G1 X108.136 Y103.457 E.01599
G1 X108.317 Y102.961 E.01656
G1 X108.547 Y102.448 E.01763
G1 X108.783 Y101.997 E.01597
G1 X109.05 Y101.558 E.01611
G1 X109.375 Y101.096 E.0177
G1 X109.722 Y100.668 E.01726
G1 X110.064 Y100.297 E.01585
G1 X110.436 Y99.94 E.01616
G1 X110.708 Y99.712 E.01113
M204 S1000
G1 X110.951 Y100 F10800
M204 S800
G1 F1200
G1 X111.483 Y99.595 E.02098
G1 X111.933 Y99.308 E.01674
G1 X112.358 Y99.073 E.01523
G1 X112.801 Y98.864 E.01535
G1 X113.296 Y98.669 E.01667
G1 X113.822 Y98.502 E.01731
G1 X114.286 Y98.389 E.01496
G1 X114.755 Y98.304 E.01497
G1 X115.306 Y98.241 E.01739
G1 X115.788 Y98.218 E.01513
G1 X116.262 Y98.225 E.01484
G1 X116.811 Y98.269 E.01727
G1 X117.3 Y98.341 E.0155
G1 X117.792 Y98.446 E.01578
G1 X118.26 Y98.577 E.01524
G1 X118.736 Y98.743 E.0158
G1 X119.229 Y98.955 E.01683
G1 X119.663 Y99.174 E.01523
G1 X120.085 Y99.422 E.01535
G1 X120.531 Y99.725 E.01692
G1 X120.936 Y100.042 E.0161
G1 X121.305 Y100.372 E.01554
G1 X121.649 Y100.72 E.01534
G1 X121.976 Y101.097 E.01565
G1 X122.284 Y101.499 E.01587
G1 X122.563 Y101.919 E.01583
G1 X122.839 Y102.402 E.01745
G1 X123.085 Y102.918 E.01792
G1 X123.381 Y103.713 E.0266
G1 X123.548 Y104.341 E.02037
G1 X123.637 Y104.804 E.01477
G1 X123.7 Y105.302 E.01577
G1 X123.731 Y105.782 E.01506
G1 X123.731 Y106.258 E.01494
G1 X123.691 Y106.86 E.01892
G1 X123.629 Y107.322 E.0146
G1 X123.541 Y107.768 E.01427
G1 X123.391 Y108.331 E.01826
G1 X123.24 Y108.774 E.01466
G1 X123.064 Y109.207 E.01467
G1 X122.813 Y109.719 E.01788
G1 X122.576 Y110.133 E.01494
G1 X122.314 Y110.532 E.01498
G1 X121.961 Y110.995 E.01826
G1 X121.65 Y111.353 E.01487
G1 X121.306 Y111.701 E.01532
G1 X120.951 Y112.019 E.01497
G1 X120.567 Y112.322 E.01532
G1 X120.098 Y112.644 E.01784
G1 X119.696 Y112.881 E.01463
G1 X119.274 Y113.098 E.01487
G1 X118.737 Y113.33 E.01835
G1 X118.283 Y113.489 E.01508
G1 X117.829 Y113.618 E.01481
G1 X117.287 Y113.735 E.01736
G1 X116.761 Y113.81 E.01668
G1 X116.261 Y113.849 E.0157
G1 X115.757 Y113.855 E.01583
G1 X115.275 Y113.829 E.01513
G1 X114.806 Y113.777 E.01479
G1 X114.263 Y113.68 E.0173
G1 X113.8 Y113.565 E.01495
G1 X113.346 Y113.422 E.01493
G1 X112.803 Y113.21 E.01826
G1 X112.382 Y113.012 E.01459
G1 X111.977 Y112.791 E.01448
G1 X111.485 Y112.48 E.01826
G1 X111.095 Y112.193 E.01518
G1 X110.731 Y111.891 E.01481
G1 X110.33 Y111.509 E.01738
G1 X109.971 Y111.117 E.01667
G1 X109.658 Y110.726 E.01568
G1 X109.378 Y110.327 E.01532
G1 X109.134 Y109.93 E.01459
G1 X108.91 Y109.511 E.0149
G1 X108.67 Y108.978 E.01831
G1 X108.503 Y108.527 E.0151
G1 X108.366 Y108.075 E.01482
G1 X108.238 Y107.522 E.01778
G1 X108.16 Y107.037 E.01541
G1 X108.112 Y106.544 E.01554
G1 X108.096 Y106.054 E.01536
G1 X108.11 Y105.564 E.01538
G1 X108.163 Y105.015 E.01729
G1 X108.243 Y104.527 E.01551
G1 X108.356 Y104.036 E.01578
G1 X108.495 Y103.571 E.01524
G1 X108.669 Y103.097 E.01581
G1 X108.888 Y102.608 E.01683
G1 X109.114 Y102.178 E.01523
G1 X109.369 Y101.759 E.01535
G1 X109.68 Y101.318 E.01692
G1 X110.003 Y100.919 E.0161
G1 X110.337 Y100.556 E.01547
G1 X110.905 Y100.039 E.02408
M204 S1000
G1 X111.147 Y100.328 F10800
M204 S800
G1 F1200
G1 X111.701 Y99.902 E.02192
G1 X112.13 Y99.629 E.01594
G1 X112.535 Y99.406 E.01449
G1 X112.956 Y99.208 E.01459
G1 X113.428 Y99.022 E.01589
G1 X113.918 Y98.867 E.01613
G1 X114.359 Y98.759 E.01422
G1 X114.816 Y98.676 E.01459
G1 X115.33 Y98.617 E.01621
G1 X115.8 Y98.595 E.01475
G1 X116.25 Y98.602 E.01411
G1 X116.762 Y98.642 E.01609
G1 X117.239 Y98.713 E.01511
G1 X117.707 Y98.813 E.01501
G1 X118.152 Y98.939 E.01449
G1 X118.605 Y99.097 E.01505
G1 X119.075 Y99.299 E.01604
G1 X119.487 Y99.507 E.01449
G1 X119.888 Y99.743 E.01459
G1 X120.314 Y100.033 E.01614
G1 X120.689 Y100.327 E.01496
G1 X121.041 Y100.641 E.01479
G1 X121.376 Y100.98 E.01495
G1 X121.687 Y101.339 E.01488
G1 X121.98 Y101.723 E.01513
G1 X122.245 Y102.122 E.01505
G1 X122.502 Y102.572 E.01622
G1 X122.735 Y103.058 E.0169
G1 X123.024 Y103.836 E.02604
G1 X123.179 Y104.419 E.0189
G1 X123.264 Y104.857 E.01401
G1 X123.325 Y105.333 E.01502
G1 X123.354 Y105.788 E.01432
G1 X123.354 Y106.24 E.01416
G1 X123.316 Y106.816 E.01812
G1 X123.258 Y107.255 E.01386
G1 X123.172 Y107.689 E.0139
G1 X123.031 Y108.216 E.01708
G1 X122.885 Y108.647 E.01428
G1 X122.717 Y109.058 E.01394
G1 X122.483 Y109.537 E.01671
G1 X122.252 Y109.94 E.01456
G1 X122.002 Y110.319 E.01423
G1 X121.672 Y110.753 E.01709
G1 X121.377 Y111.093 E.01412
G1 X121.05 Y111.424 E.01458
G1 X120.704 Y111.734 E.01459
G1 X120.339 Y112.022 E.01457
G1 X119.9 Y112.322 E.01667
G1 X119.509 Y112.554 E.01425
G1 X119.108 Y112.759 E.01413
G1 X118.606 Y112.976 E.01715
G1 X118.163 Y113.131 E.0147
G1 X117.731 Y113.254 E.01408
G1 X117.227 Y113.362 E.01617
G1 X116.725 Y113.435 E.0159
G1 X116.25 Y113.472 E.01493
G1 X115.77 Y113.478 E.01506
G1 X115.3 Y113.453 E.01476
G1 X114.854 Y113.403 E.01408
G1 X114.347 Y113.312 E.01614
G1 X113.907 Y113.203 E.01421
G1 X113.465 Y113.064 E.01455
G1 X112.957 Y112.866 E.01708
G1 X112.557 Y112.679 E.01385
G1 X112.163 Y112.463 E.0141
G1 X111.703 Y112.172 E.01706
G1 X111.323 Y111.892 E.0148
G1 X110.977 Y111.605 E.01408
G1 X110.603 Y111.249 E.01619
G1 X110.261 Y110.876 E.01589
G1 X109.963 Y110.505 E.01492
G1 X109.696 Y110.124 E.01458
G1 X109.458 Y109.738 E.01422
G1 X109.246 Y109.339 E.01416
G1 X109.021 Y108.841 E.01712
G1 X108.859 Y108.401 E.01471
G1 X108.729 Y107.971 E.01409
G1 X108.609 Y107.456 E.0166
